LG 27GP950-B by 4KM (i1 Pro 2).ccss
CCSS   

DESCRIPTOR "LG 27GP950-B by 4KM (i1 Pro 2)"
ORIGINATOR "Argyll ccxxmake"
CREATED "Tue Jun 21 18:35:07 2022"
REFERENCE "X-Rite i1 Pro 2"
REFERENCE_HASH "md5:3765c6aadb1c7e34601a3d840eb968f6"
FIT_METHOD "ΔE*94"
MANUFACTURER_ID "GSM"
MANUFACTURER "LG Electronics"
DISPLAY "LG ULTRAGEAR+"
TECHNOLOGY "Unknown"
DISPLAY_TYPE_REFRESH "YES"
SPECTRAL_BANDS "36"
SPECTRAL_START_NM "380.000000"
SPECTRAL_END_NM "730.000000"
SPECTRAL_NORM "1.000000"

NUMBER_OF_FIELDS 37
BEGIN_DATA_FORMAT
SAMPLE_ID SPEC_380 SPEC_390 SPEC_400 SPEC_410 SPEC_420 SPEC_430 SPEC_440 SPEC_450 SPEC_460 SPEC_470 SPEC_480 SPEC_490 SPEC_500 SPEC_510 SPEC_520 SPEC_530 SPEC_540 SPEC_550 SPEC_560 SPEC_570 SPEC_580 SPEC_590 SPEC_600 SPEC_610 SPEC_620 SPEC_630 SPEC_640 SPEC_650 SPEC_660 SPEC_670 SPEC_680 SPEC_690 SPEC_700 SPEC_710 SPEC_720 SPEC_730 
END_DATA_FORMAT

NUMBER_OF_SETS 4
BEGIN_DATA
1 0.0356892 0.0433615 0.0433194 0.125189 0.863993 6.560629 36.29824 84.74566 62.36386 28.97538 14.65667 10.09891 13.86561 28.60236 46.11392 61.18627 62.54092 52.06194 36.61279 19.49226 8.916950 9.545105 14.94700 41.80583 42.37429 100.0000 49.21657 19.42525 8.837944 6.282478 4.467811 3.424085 2.711953 2.051137 1.628487 1.360276 
2 0.00172944 0.0100704 0.00272857 0.0227728 0.0320482 0.0967850 0.424184 0.701252 0.402996 0.228641 0.159809 0.0922556 0.0745034 0.129378 0.211264 0.245420 0.181338 0.108362 0.0885446 0.272442 1.398154 5.122820 12.25303 39.65263 41.65734 99.91997 49.17951 19.34501 8.664783 6.061687 4.302567 3.254580 2.529686 1.826491 1.403732 1.052810 
3 -0.00650114 0.000956928 -0.00993627 0.00256918 -0.00387750 0.00431169 0.0637550 0.122091 0.126260 0.739164 3.041626 4.929644 9.798666 23.78221 42.15771 58.64469 61.05287 51.43210 36.45184 19.24302 7.530057 4.436882 2.758136 2.389467 0.949997 0.556511 0.192789 0.0410910 0.0102142 0.0149667 0.0429996 0.0909737 0.112725 0.120364 0.155701 0.211792 
4 -0.00575547 -0.00289913 0.00656763 0.0866005 0.821926 6.448222 35.86960 84.06977 62.01452 28.11049 11.51434 5.119637 4.051057 4.838382 3.992592 2.640074 1.662782 0.816474 0.291654 0.0971837 0.0407494 0.0262004 0.0371644 0.0676435 0.0779001 0.192360 0.130896 0.142081 0.172475 0.191532 0.118496 0.0843481 0.0689241 0.0618774 0.0529493 0.0431590 
END_DATA
