LG 27UL850W by 4KM (i1 Pro 2).ccss
CCSS   

DESCRIPTOR "LG 27UL850W by 4KM (i1 Pro 2)"
ORIGINATOR "Argyll ccxxmake"
CREATED "Tue Jun 15 13:35:19 2021"
REFERENCE "X-Rite i1 Pro 2"
REFERENCE_HASH "md5:51253202f1b9a810bf508bd2843ba3df"
FIT_METHOD "ΔE*94"
MANUFACTURER_ID "GSM"
MANUFACTURER "LG Electronics"
DISPLAY "LG HDR 4K"
TECHNOLOGY "LCD White LED IPS"
DISPLAY_TYPE_REFRESH "YES"
SPECTRAL_BANDS "109"
SPECTRAL_START_NM "370.000000"
SPECTRAL_END_NM "730.000000"
SPECTRAL_NORM "1.000000"

NUMBER_OF_FIELDS 110
BEGIN_DATA_FORMAT
SAMPLE_ID SPEC_370 SPEC_373 SPEC_377 SPEC_380 SPEC_383 SPEC_387 SPEC_390 SPEC_393 SPEC_397 SPEC_400 SPEC_403 SPEC_407 SPEC_410 SPEC_413 SPEC_417 SPEC_420 SPEC_423 SPEC_427 SPEC_430 SPEC_433 SPEC_437 SPEC_440 SPEC_443 SPEC_447 SPEC_450 SPEC_453 SPEC_457 SPEC_460 SPEC_463 SPEC_467 SPEC_470 SPEC_473 SPEC_477 SPEC_480 SPEC_483 SPEC_487 SPEC_490 SPEC_493 SPEC_497 SPEC_500 SPEC_503 SPEC_507 SPEC_510 SPEC_513 SPEC_517 SPEC_520 SPEC_523 SPEC_527 SPEC_530 SPEC_533 SPEC_537 SPEC_540 SPEC_543 SPEC_547 SPEC_550 SPEC_553 SPEC_557 SPEC_560 SPEC_563 SPEC_567 SPEC_570 SPEC_573 SPEC_577 SPEC_580 SPEC_583 SPEC_587 SPEC_590 SPEC_593 SPEC_597 SPEC_600 SPEC_603 SPEC_607 SPEC_610 SPEC_613 SPEC_617 SPEC_620 SPEC_623 SPEC_627 SPEC_630 SPEC_633 SPEC_637 SPEC_640 SPEC_643 SPEC_647 SPEC_650 SPEC_653 SPEC_657 SPEC_660 SPEC_663 SPEC_667 SPEC_670 SPEC_673 SPEC_677 SPEC_680 SPEC_683 SPEC_687 SPEC_690 SPEC_693 SPEC_697 SPEC_700 SPEC_703 SPEC_707 SPEC_710 SPEC_713 SPEC_717 SPEC_720 SPEC_723 SPEC_727 SPEC_730 
END_DATA_FORMAT

NUMBER_OF_SETS 4
BEGIN_DATA
1 0.167498 0.0986942 0.0869057 0.0582810 0.0416613 0.0371702 0.0562534 0.0427358 0.0415325 0.0566519 0.0751585 0.104178 0.161425 0.267740 0.571763 1.226494 2.478575 4.736479 8.778428 16.57808 31.25860 54.22656 81.21456 100.0000 99.14654 82.64841 64.09260 49.79931 38.51183 28.73152 20.83810 15.46481 12.03441 9.613326 7.808439 6.592777 6.048008 6.283528 7.384136 9.492994 12.84692 17.85680 24.29107 30.97364 36.84939 41.41665 44.95446 47.70847 48.99301 48.79546 48.39444 47.75501 45.72429 42.43206 38.88546 35.43338 31.86026 28.35478 25.30049 22.67291 20.34906 18.51761 17.48747 17.49261 18.48208 20.27455 22.66656 25.24843 27.53701 29.20144 30.37149 31.39248 32.33170 33.00051 33.22291 32.99363 32.46717 31.74259 30.60958 28.99253 27.22327 25.64652 24.26932 23.06173 21.92409 20.61023 19.09272 17.61428 16.30439 14.96620 13.53841 12.14175 10.83876 9.656150 8.587185 7.698796 6.987763 6.324384 5.674624 5.024282 4.412851 3.852383 3.412606 3.044119 2.719708 2.448833 2.213628 2.064818 1.958257 
2 0.0449414 0.0171443 0.0243586 0.0144074 0.00890757 0.00758985 0.0284814 0.0158131 0.00544639 0.00166474 0.00470370 0.0233338 0.0141021 0.000851748 0.0288315 0.0650619 0.101660 0.158437 0.239239 0.378724 0.623943 0.943684 1.241343 1.346012 1.164653 0.831190 0.541084 0.370589 0.278076 0.218050 0.164602 0.125317 0.101400 0.0792287 0.0573728 0.0464848 0.0475540 0.0474858 0.0410646 0.0476548 0.0647133 0.0808269 0.0979506 0.121736 0.151055 0.183969 0.209412 0.215717 0.209191 0.188867 0.163106 0.140245 0.113028 0.0935486 0.0840500 0.0783586 0.0693883 0.0586106 0.0791003 0.141199 0.319710 0.780750 1.815934 3.703584 6.492482 10.01750 14.06625 18.28468 22.15192 25.25216 27.60511 29.54390 31.16716 32.28695 32.76240 32.67405 32.23496 31.57306 30.46176 28.84206 27.08089 25.52550 24.16804 22.92196 21.72634 20.40132 18.87509 17.36944 16.02895 14.70740 13.29339 11.90658 10.62507 9.453346 8.429262 7.543579 6.800098 6.136608 5.481391 4.843371 4.259289 3.698754 3.224002 2.835836 2.506081 2.240349 2.014941 1.844355 1.675338 
3 0.180138 0.0627783 0.00736153 -0.0220020 -0.0168350 -0.0143363 0.00867138 0.0150970 0.00746489 0.0127279 0.0158400 0.0168824 0.00755000 -0.00388747 0.0162407 0.0337750 0.0401462 0.0700527 0.129525 0.265293 0.569942 1.091926 1.778444 2.346772 2.473700 2.251105 2.064966 2.114827 2.301309 2.468848 2.617624 2.814256 3.004359 3.080816 3.035800 2.984165 3.092466 3.525938 4.476293 6.155973 8.843390 12.95261 18.44057 24.51546 30.32900 35.35048 39.59676 43.07184 45.06797 45.54919 45.72746 45.63278 44.14166 41.28863 38.08314 34.89662 31.50946 28.12228 25.11515 22.45577 19.98129 17.70161 15.63665 13.75228 11.96421 10.23578 8.562095 6.915980 5.333598 3.891316 2.683772 1.764718 1.102783 0.664790 0.396800 0.245713 0.163636 0.110417 0.0777443 0.0576121 0.0384529 0.0298209 0.0368361 0.0477608 0.0702549 0.0692752 0.0464795 0.0249839 0.0388552 0.0538087 0.0574605 0.0728760 0.0702122 0.0707551 0.0467058 0.0502947 0.0724598 0.0695082 0.0628769 0.0847971 0.116188 0.100758 0.0970094 0.129865 0.141360 0.135710 0.127231 0.173674 0.197596 
4 0.0489870 0.0280759 0.0358565 0.0254202 0.0114313 0.00175253 0.00145104 -0.00991607 -0.0135403 0.0187812 0.0423545 0.0576553 0.114478 0.228056 0.516418 1.132259 2.311730 4.453998 8.281693 15.69671 29.65079 51.43648 77.08298 94.99824 94.22725 78.49885 60.64784 46.64052 35.42766 25.70795 17.83006 12.36834 8.817182 6.377495 4.650138 3.515338 2.892256 2.692963 2.840219 3.245604 3.883847 4.771275 5.697970 6.268277 6.273510 5.804795 5.125785 4.418933 3.724180 3.075068 2.508026 2.001434 1.517285 1.086454 0.755125 0.518612 0.351811 0.229382 0.157906 0.109764 0.0805246 0.0770105 0.0645679 0.0468102 0.0449881 0.0553379 0.0525499 0.0492155 0.0514707 0.0480430 0.0516581 0.0574701 0.0539038 0.0548899 0.0546417 0.0484310 0.0358670 0.0381680 0.0613397 0.0537919 0.0529111 0.0599769 0.0625900 0.0727917 0.108472 0.159197 0.197823 0.228990 0.233944 0.177684 0.149840 0.149638 0.118452 0.102504 0.0902135 0.0776586 0.0768759 0.0594601 0.0364716 0.0290333 0.0324612 0.0332924 0.0504738 0.0554808 0.0860317 0.0863770 0.106244 0.131512 0.186097 
END_DATA
