MSI 321URX (i1 Pro 2, CIE 1931 2°).ccss
CCSS   

DESCRIPTOR "MSI 321URX (i1 Pro 2, CIE 1931 2°)"
ORIGINATOR "Argyll ccxxmake"
CREATED "Thu Sep 05 00:51:09 2024"
REFERENCE "X-Rite i1 Pro 2"
REFERENCE_HASH "md5:8192b3b355628d0aed9ee4ecec4bd44e"
FIT_METHOD "ΔE*94"
MANUFACTURER_ID "MSI"
MANUFACTURER "Microstep"
DISPLAY "MPG321UX OLED"
TECHNOLOGY "Unknown"
DISPLAY_TYPE_REFRESH "YES"
SPECTRAL_BANDS "109"
SPECTRAL_START_NM "370.000000"
SPECTRAL_END_NM "730.000000"
SPECTRAL_NORM "1.000000"

NUMBER_OF_FIELDS 110
BEGIN_DATA_FORMAT
SAMPLE_ID SPEC_370 SPEC_373 SPEC_377 SPEC_380 SPEC_383 SPEC_387 SPEC_390 SPEC_393 SPEC_397 SPEC_400 SPEC_403 SPEC_407 SPEC_410 SPEC_413 SPEC_417 SPEC_420 SPEC_423 SPEC_427 SPEC_430 SPEC_433 SPEC_437 SPEC_440 SPEC_443 SPEC_447 SPEC_450 SPEC_453 SPEC_457 SPEC_460 SPEC_463 SPEC_467 SPEC_470 SPEC_473 SPEC_477 SPEC_480 SPEC_483 SPEC_487 SPEC_490 SPEC_493 SPEC_497 SPEC_500 SPEC_503 SPEC_507 SPEC_510 SPEC_513 SPEC_517 SPEC_520 SPEC_523 SPEC_527 SPEC_530 SPEC_533 SPEC_537 SPEC_540 SPEC_543 SPEC_547 SPEC_550 SPEC_553 SPEC_557 SPEC_560 SPEC_563 SPEC_567 SPEC_570 SPEC_573 SPEC_577 SPEC_580 SPEC_583 SPEC_587 SPEC_590 SPEC_593 SPEC_597 SPEC_600 SPEC_603 SPEC_607 SPEC_610 SPEC_613 SPEC_617 SPEC_620 SPEC_623 SPEC_627 SPEC_630 SPEC_633 SPEC_637 SPEC_640 SPEC_643 SPEC_647 SPEC_650 SPEC_653 SPEC_657 SPEC_660 SPEC_663 SPEC_667 SPEC_670 SPEC_673 SPEC_677 SPEC_680 SPEC_683 SPEC_687 SPEC_690 SPEC_693 SPEC_697 SPEC_700 SPEC_703 SPEC_707 SPEC_710 SPEC_713 SPEC_717 SPEC_720 SPEC_723 SPEC_727 SPEC_730 
END_DATA_FORMAT

NUMBER_OF_SETS 4
BEGIN_DATA
1 0.226098 0.118101 0.0684747 0.0326681 0.0412995 0.054971 0.0303239 0.0248073 0.00916722 0.0362236 0.069101 0.0985099 0.147266 0.219601 0.308188 0.448916 0.65187 1.00964 1.94843 4.57021 11.266 25.0629 46.5155 70.5897 88.7316 94.3915 87.9276 74.7043 60.6352 49.2928 41.7835 37.1986 33.8716 30.4322 26.2848 21.6181 17.1641 13.5576 11.207 10.2596 10.9633 13.5015 18.0802 25.2253 35.5332 49.0353 64.0603 77.2281 85.253 86.6932 82.0649 73.2145 62.5342 52.0478 42.9881 35.7091 30.0487 25.6425 22.0436 18.8055 15.6412 12.4485 9.35164 6.60832 4.45455 3.07134 2.59318 3.1828 4.91827 7.98349 12.5245 18.558 26.0761 35.1192 45.8044 57.9137 70.6139 82.4175 91.8095 97.8468 100 97.8355 91.7554 83.0494 72.703 61.7401 51.0215 41.3006 33.0816 26.3613 20.9504 16.6367 13.2422 10.5993 8.54668 6.95419 5.79633 4.86334 4.08925 3.46699 2.9816 2.5863 2.26508 2.00666 1.76008 1.58871 1.45634 1.38102 1.33056 
2 0.0610234 0.0188925 0.0355796 0.0184681 0.00608725 0.0188873 0.0224204 0.0203497 0.0289963 0.025082 0.0104707 0.0129832 0.0089589 0.00839062 0.0105484 0.00637705 0.0126242 0.00766086 0.00596012 0.0259792 0.0732832 0.158814 0.282949 0.426641 0.536321 0.587436 0.561373 0.483533 0.396338 0.332335 0.288905 0.27857 0.270298 0.261927 0.2508 0.231476 0.200414 0.191326 0.222785 0.16299 0.159947 0.208101 0.279386 0.388436 0.563892 0.801765 1.08829 1.35771 1.53976 1.6005 1.53177 1.36249 1.15959 0.965644 0.79498 0.655337 0.539268 0.442546 0.373764 0.315131 0.251905 0.190868 0.142795 0.125554 0.180943 0.439693 1.08648 2.3495 4.46672 7.69833 12.2726 18.3184 25.763 34.6799 45.2329 57.2287 69.7849 81.4484 90.7267 96.5746 98.674 96.5668 90.5121 81.8284 71.6773 60.8984 50.2698 40.6434 32.4478 25.7782 20.4372 16.1783 12.8221 10.1944 8.18564 6.65122 5.49638 4.55028 3.81274 3.20419 2.74855 2.37405 2.06907 1.78943 1.57496 1.39532 1.2789 1.15872 1.09048 
3 0.0394221 0.0243327 0.0573079 0.0448851 0.0488241 0.0493812 0.0470529 0.0194416 0.0206628 0.0171274 0.0195244 0.0206724 0.0298569 0.0243063 0.00814166 0.012644 0.00719602 0.00461066 0.00186945 0.0050078 0.0268366 0.087477 0.170427 0.293726 0.434551 0.513124 0.511061 0.453042 0.400909 0.370559 0.402666 0.518649 0.731846 1.09986 1.59919 2.14534 2.65628 3.20497 3.98878 5.1453 7.18643 10.5285 15.6081 23.0102 33.4261 46.9648 62.0399 75.3389 83.5442 85.1988 80.8423 72.2936 61.8748 51.5796 42.6654 35.4974 29.9178 25.5508 21.9633 18.7514 15.6035 12.4049 9.31 6.5312 4.28254 2.61154 1.46999 0.790659 0.42187 0.241714 0.191112 0.208817 0.258463 0.346697 0.441813 0.558184 0.69425 0.830893 0.945806 1.03272 1.06697 1.04571 1.00963 0.924546 0.823682 0.712677 0.594242 0.495673 0.413197 0.344776 0.331565 0.266343 0.231914 0.198743 0.17784 0.158598 0.159182 0.178126 0.154225 0.133165 0.145761 0.160516 0.139665 0.107862 0.121677 0.144737 0.189403 0.170358 0.183447 
4 0.00793189 0.017671 0.0167109 -0.00473311 -0.0290593 -0.0160074 0.000113071 0.00223718 0.00996531 0.0129701 0.0296438 0.0495078 0.12982 0.197249 0.27652 0.418961 0.619028 0.990513 1.94094 4.57169 11.3137 25.165 46.637 70.7157 88.7836 94.3051 87.8239 74.6197 60.4971 49.1571 41.5586 36.8517 33.2925 29.4548 24.7787 19.539 14.5362 10.3625 7.29907 5.15123 3.82227 3.03401 2.58964 2.37993 2.32061 2.34057 2.3439 2.26798 2.10079 1.85195 1.54802 1.23652 0.955347 0.720983 0.536065 0.408914 0.320228 0.253183 0.201764 0.181076 0.167935 0.151711 0.135101 0.11563 0.0992622 0.0808418 0.0544997 0.0583948 0.0638887 0.0862102 0.105448 0.13607 0.169149 0.206449 0.270589 0.338743 0.423217 0.491786 0.553023 0.616211 0.629611 0.621802 0.577222 0.555679 0.51348 0.468008 0.443365 0.432696 0.410784 0.386402 0.352986 0.309114 0.259182 0.214005 0.180628 0.154681 0.170527 0.17663 0.126983 0.114881 0.12574 0.111227 0.0841492 0.0676204 0.0575786 0.0839725 0.121125 0.0927997 0.0812886 
END_DATA
