MSI MPG 321URXWW (i1 Pro 3).ccss
CCSS   

DESCRIPTOR "MSI MPG 321URXWW (i1 Pro 3)"
ORIGINATOR "Argyll ccxxmake"
CREATED "Thu Jun 26 17:10:47 2025"
REFERENCE "X-Rite i1 Pro 3"
REFERENCE_HASH "md5:c28ca70f9522590c6261273b69554901"
FIT_METHOD "ΔE*94"
MANUFACTURER_ID "CND"
MANUFACTURER "Micro-Star Int'l Co., Ltd."
DISPLAY "MSI MPG 321URXWW"
TECHNOLOGY "LED OLED"
DISPLAY_TYPE_REFRESH "YES"
SPECTRAL_BANDS "36"
SPECTRAL_START_NM "380.000000"
SPECTRAL_END_NM "730.000000"
SPECTRAL_NORM "1.000000"

NUMBER_OF_FIELDS 37
BEGIN_DATA_FORMAT
SAMPLE_ID SPEC_380 SPEC_390 SPEC_400 SPEC_410 SPEC_420 SPEC_430 SPEC_440 SPEC_450 SPEC_460 SPEC_470 SPEC_480 SPEC_490 SPEC_500 SPEC_510 SPEC_520 SPEC_530 SPEC_540 SPEC_550 SPEC_560 SPEC_570 SPEC_580 SPEC_590 SPEC_600 SPEC_610 SPEC_620 SPEC_630 SPEC_640 SPEC_650 SPEC_660 SPEC_670 SPEC_680 SPEC_690 SPEC_700 SPEC_710 SPEC_720 SPEC_730 
END_DATA_FORMAT

NUMBER_OF_SETS 4
BEGIN_DATA
1 0.0630408 0.0615858 0.0825486 0.216857 0.619113 4.429705 31.82870 79.71973 70.75223 43.32497 31.83428 19.92999 13.06707 21.81941 52.09964 80.14571 70.65025 44.61713 26.96972 16.18396 7.437010 3.355116 8.155407 25.66859 57.50135 90.85686 100.0000 77.17966 45.50359 23.46350 11.78383 6.305386 3.719825 2.420679 1.681204 1.297246 
2 0.0248593 0.0156038 0.00787388 0.0139263 0.0172696 0.0412894 0.213121 0.527039 0.477784 0.306453 0.257486 0.199560 0.167331 0.317182 0.852254 1.445111 1.328044 0.839949 0.497330 0.289416 0.216676 1.326596 7.597201 24.90941 55.91514 88.32480 97.18649 74.95538 44.08755 22.63343 11.29444 5.982228 3.477511 2.233370 1.529138 1.134301 
3 0.00457387 0.0129134 0.00558712 0.0130598 0.0109768 0.0168786 0.126495 0.419014 0.476429 0.548549 1.470918 3.261075 6.528353 18.56160 48.91117 76.73514 68.14074 43.22897 26.20824 15.73108 7.101526 1.924212 0.389305 0.292652 0.575181 0.921930 1.045033 0.833851 0.517591 0.296058 0.176291 0.132624 0.103559 0.0910812 0.0841029 0.0901179 
4 0.000794806 0.0211674 0.0450889 0.179825 0.580813 4.341133 31.32356 78.42193 69.48200 42.27269 29.95503 16.38886 6.342557 2.951604 2.387275 2.028746 1.246296 0.583757 0.282012 0.172193 0.118660 0.0830896 0.0885729 0.181100 0.372633 0.590672 0.672754 0.564876 0.406208 0.278837 0.170131 0.106821 0.0785630 0.0600669 0.0510138 0.0451512 
END_DATA
