XPS13 Korrektur (i1 Pro 2).ccmx
CCMX   

DESCRIPTOR "XPS13 Korrektur"
INSTRUMENT "X-Rite i1 DisplayPro, ColorMunki Display"
MANUFACTURER_ID "SHR"
MANUFACTURER "Sharp Corporation"
OBSERVER "1931_2"
REFERENCE_OBSERVER "1931_2"
DISPLAY "F40HY-LQ134R1"
TECHNOLOGY "Unknown"
DISPLAY_TYPE_BASE_ID "1"
DISPLAY_TYPE_REFRESH "NO"
REFERENCE "X-Rite i1 Pro 2"
REFERENCE_HASH "md5:a750a4ed64ddf963a4a99715836a983d"
TARGET_HASH "md5:dab90f27cec1a1e184044886f00f36f8"
FIT_METHOD "ΔE*94"
FIT_AVG_DE00 "0.017531"
FIT_MAX_DE00 "0.026755"
FIT_AVG_DE94 "0.024254"
FIT_MAX_DE94 "0.041368"
ORIGINATOR "Argyll ccmx"
CREATED "Thu Jun 02 17:17:38 2022"
COLOR_REP "XYZ"

NUMBER_OF_FIELDS 3
BEGIN_DATA_FORMAT
XYZ_X XYZ_Y XYZ_Z 
END_DATA_FORMAT

NUMBER_OF_SETS 3
BEGIN_DATA
1.070850 -0.0350758 -0.00169834 
0.00988429 1.007700 -0.000550638 
0.00238557 0.0000749933 1.050383 
END_DATA
