calibration/MPG321UX_#1_2026-08-14_22-38_D6500_2.2_F-S_3xCurve+MTX/MPG321UX_#1_2026-08-14_22-38_D6500_2.2_F-S_3xCurve+MTX.ti3
CTI3   

DESCRIPTOR "Argyll Calibration Target chart information 3"
ORIGINATOR "Argyll dispread"
CREATED "Fri Aug 14 22:54:18 2026"
DEVICE_CLASS "DISPLAY"
SINGLE_DIM_STEPS "2"
COMP_GREY_STEPS "52"
COLOR_REP "RGB_XYZ"
TARGET_INSTRUMENT "X-Rite i1 DisplayPro, ColorMunki Display"
DISPLAY_TYPE_REFRESH "YES"
DISPLAY_TYPE_BASE_ID "2"
INSTRUMENT_TYPE_SPECTRAL "NO"
LUMINANCE_XYZ_CDM2 "111.144521 116.673607 126.290939"
NORMALIZED_TO_Y_100 "YES"
VIDEO_LUT_CALIBRATION_POSSIBLE "YES"

BEGIN_ARGYLL_COLPROF_ARGS
-v -qh -as -C "No copyright. Created with DisplayCAL 3.9.19 and Argyll CMS 3.5.0" -M "MPG321UX OLED" -A "Microstep"
END_ARGYLL_COLPROF_ARGS

OBSERVER "1931_2"
USE_BLACK_POINT_COMPENSATION "YES"
BLACK_POINT_CORRECTION "0.0"
HIRES_B2A "YES"
HIRES_B2A_SIZE "-1"
SMOOTH_B2A "YES"
PATCH_SEQUENCE "OPTIMIZE_DISPLAY_RESPONSE_DELAY"

NUMBER_OF_FIELDS 7
BEGIN_DATA_FORMAT
SAMPLE_ID RGB_R RGB_G RGB_B XYZ_X XYZ_Y XYZ_Z
END_DATA_FORMAT

NUMBER_OF_SETS 34
BEGIN_DATA
1 100.000000 100.000000 100.000000 95.2610700 100.000000 108.242900
2 100.000000 100.000000 100.000000 95.2052800 100.032600 108.243700
3 100.000000 100.000000 100.000000 95.2042100 100.032200 108.243700
4 100.000000 100.000000 100.000000 95.3040000 100.063200 108.322700
5 0.00000000 0.00000000 0.00000000 0.00000000 0.00000000 0.00000000
6 1.96080000 1.96080000 1.96080000 0.01172780 0.00953349 0.01428740
7 3.92160000 3.92160000 3.92160000 0.06989930 0.07029710 0.09514530
8 5.88240000 5.88240000 5.88240000 0.17703800 0.18261200 0.19662300
9 9.80390000 9.80390000 9.80390000 0.51728500 0.54539900 0.58742900
10 13.7260000 13.7260000 13.7260000 1.15458700 1.25242400 1.37807400
11 17.6470000 17.6470000 17.6470000 2.09935500 2.24852100 2.41361300
12 21.5690000 21.5690000 21.5690000 3.31227900 3.52599500 3.83813600
13 25.4900000 25.4900000 25.4900000 4.65977500 5.00269600 5.24531800
14 29.4120000 29.4120000 29.4120000 6.40916400 6.70855900 7.34476000
15 33.3330000 33.3330000 33.3330000 8.45694600 8.91624300 9.62904300
16 37.2550000 37.2550000 37.2550000 11.0283900 11.6505100 12.5576200
17 41.1760000 41.1760000 41.1760000 13.5858600 14.2611000 15.6216900
18 45.0980000 45.0980000 45.0980000 16.6596700 17.4677800 19.1504000
19 49.0200000 49.0200000 49.0200000 20.0399700 21.0381300 22.9456000
20 52.9410000 52.9410000 52.9410000 23.8787500 24.9463500 27.0163400
21 56.8630000 56.8630000 56.8630000 27.9144800 29.1828900 31.8420100
22 60.7840000 60.7840000 60.7840000 31.8448300 33.5109800 36.2940100
23 64.7060000 64.7060000 64.7060000 36.4445600 38.2449300 41.3195100
24 68.6270000 68.6270000 68.6270000 41.3815200 43.2697000 46.9802400
25 72.5490000 72.5490000 72.5490000 46.5023100 48.9351200 52.8073000
26 76.4710000 76.4710000 76.4710000 52.3005500 54.7640400 59.8196700
27 80.3920000 80.3920000 80.3920000 58.2695000 61.5462700 66.2906600
28 84.3140000 84.3140000 84.3140000 64.9450700 68.1725100 74.1004800
29 88.2350000 88.2350000 88.2350000 72.2552500 75.9775900 82.0815800
30 92.1570000 92.1570000 92.1570000 79.8893700 83.6621300 91.1669400
31 96.0780000 96.0780000 96.0780000 87.5721000 92.1499100 100.421800
32 100.000000 0.00000000 0.00000000 52.3676700 23.4198600 0.74143400
33 0.00000000 100.000000 0.00000000 23.0514800 68.3828600 4.48459500
34 0.00000000 0.00000000 100.000000 18.6449000 7.45329600 102.517000
END_DATA
CAL    

DESCRIPTOR "Argyll Device Calibration State"
ORIGINATOR "Argyll dispread"
CREATED "Fri Aug 14 22:54:18 2026"
DEVICE_CLASS "DISPLAY"
COLOR_REP "RGB"

BEGIN_ARGYLL_DISPCAL_ARGS
-v2 -ql -t6500 -g2.2 -f1.0 -k0 -A4.0 -d1 -c1 -yr -P0.5,0.5,1.0 -X "MSI 321URX (i1 Pro 2, CIE 1931 2°).ccss" -Iw
END_ARGYLL_DISPCAL_ARGS


NUMBER_OF_FIELDS 4
BEGIN_DATA_FORMAT
RGB_I RGB_R RGB_G RGB_B
END_DATA_FORMAT

NUMBER_OF_SETS 256
BEGIN_DATA
0.00000000 0.00000000 0.00000000 0.00000000
0.00392157 0.00314053 0.00341561 0.00300835
0.00784314 0.00634982 0.00690601 0.00610371
0.01176470 0.00963014 0.01047370 0.00928993
0.01568630 0.01298390 0.01412120 0.01257110
0.01960780 0.01641350 0.01785140 0.01595140
0.02352940 0.01992170 0.02166690 0.01943560
0.02745100 0.02351110 0.02557090 0.02302830
0.03137250 0.02718470 0.02956630 0.02673490
0.03529410 0.03094530 0.03365650 0.03056080
0.03921570 0.03479620 0.03784040 0.03451190
0.04313730 0.03874230 0.04211680 0.03859930
0.04705880 0.04278160 0.04647840 0.04283470
0.05098040 0.04690400 0.05091060 0.04721280
0.05490200 0.05109930 0.05540250 0.05172170
0.05882350 0.05536070 0.05993510 0.05634360
0.06274510 0.05967290 0.06449130 0.06104780
0.06666670 0.06402370 0.06905470 0.06580800
0.07058820 0.06840490 0.07361000 0.07059920
0.07450980 0.07280030 0.07813900 0.07538850
0.07843140 0.07719110 0.08262890 0.08014480
0.08235290 0.08156770 0.08707740 0.08484830
0.08627450 0.08592350 0.09148720 0.08949090
0.09019610 0.09025640 0.09585750 0.09406930
0.09411760 0.09456960 0.10018000 0.09856990
0.09803920 0.09885140 0.10445000 0.10299500
0.10196100 0.10310200 0.10866200 0.10734700
0.10588200 0.10731500 0.11282400 0.11164200
0.10980400 0.11150000 0.11694500 0.11589700
0.11372500 0.11566100 0.12103100 0.12011800
0.11764700 0.11979500 0.12508600 0.12431200
0.12156900 0.12390300 0.12911300 0.12848500
0.12549000 0.12798400 0.13310800 0.13262900
0.12941200 0.13203000 0.13707900 0.13674400
0.13333300 0.13603500 0.14103200 0.14083100
0.13725500 0.14000500 0.14497200 0.14489000
0.14117600 0.14393700 0.14890900 0.14892400
0.14509800 0.14784400 0.15283900 0.15292500
0.14902000 0.15172500 0.15676600 0.15689700
0.15294100 0.15558400 0.16069100 0.16084600
0.15686300 0.15943300 0.16460700 0.16476400
0.16078400 0.16326500 0.16851700 0.16865700
0.16470600 0.16708300 0.17241800 0.17253200
0.16862700 0.17089300 0.17631300 0.17639000
0.17254900 0.17469400 0.18020000 0.18023200
0.17647100 0.17849300 0.18408700 0.18406600
0.18039200 0.18229100 0.18798700 0.18791300
0.18431400 0.18610300 0.19189100 0.19176500
0.18823500 0.18992900 0.19579900 0.19562100
0.19215700 0.19376300 0.19971100 0.19948200
0.19607800 0.19760400 0.20363200 0.20335800
0.20000000 0.20145600 0.20755900 0.20724300
0.20392200 0.20531700 0.21148900 0.21113300
0.20784300 0.20918300 0.21542800 0.21503200
0.21176500 0.21305300 0.21936100 0.21892900
0.21568600 0.21692600 0.22328100 0.22281100
0.21960800 0.22078700 0.22719700 0.22669300
0.22352900 0.22464000 0.23110600 0.23057800
0.22745100 0.22849500 0.23499900 0.23445700
0.23137300 0.23234900 0.23887300 0.23832300
0.23529400 0.23619200 0.24272900 0.24218200
0.23921600 0.24002700 0.24656800 0.24603800
0.24313700 0.24385600 0.25039100 0.24989200
0.24705900 0.24768200 0.25420700 0.25375600
0.25098000 0.25150800 0.25802100 0.25763000
0.25490200 0.25534400 0.26183200 0.26151400
0.25882400 0.25918900 0.26564300 0.26541100
0.26274500 0.26304200 0.26946200 0.26931600
0.26666700 0.26690200 0.27329700 0.27323800
0.27058800 0.27077300 0.27713900 0.27716800
0.27451000 0.27465500 0.28097900 0.28108500
0.27843100 0.27853600 0.28481300 0.28497300
0.28235300 0.28240300 0.28865600 0.28884600
0.28627500 0.28625500 0.29251400 0.29272100
0.29019600 0.29011100 0.29638000 0.29659300
0.29411800 0.29397500 0.30024600 0.30044900
0.29803900 0.29784100 0.30410400 0.30428700
0.30196100 0.30170600 0.30794300 0.30809600
0.30588200 0.30556400 0.31177000 0.31188700
0.30980400 0.30941100 0.31557800 0.31566600
0.31372500 0.31325900 0.31936800 0.31943000
0.31764700 0.31710800 0.32314200 0.32318600
0.32156900 0.32096200 0.32689800 0.32693600
0.32549000 0.32482200 0.33063700 0.33068000
0.32941200 0.32868800 0.33436200 0.33442100
0.33333300 0.33255800 0.33808500 0.33817600
0.33725500 0.33643900 0.34180500 0.34194200
0.34117600 0.34033100 0.34552300 0.34572000
0.34509800 0.34423400 0.34924200 0.34950800
0.34902000 0.34814600 0.35296600 0.35330600
0.35294100 0.35206900 0.35669900 0.35711900
0.35686300 0.35600600 0.36043000 0.36093800
0.36078400 0.35995100 0.36415800 0.36475400
0.36470600 0.36389300 0.36789800 0.36859000
0.36862700 0.36785000 0.37164100 0.37244200
0.37254900 0.37182200 0.37538400 0.37630400
0.37647100 0.37580500 0.37912900 0.38017100
0.38039200 0.37979300 0.38287500 0.38404900
0.38431400 0.38378600 0.38661800 0.38793600
0.38823500 0.38777900 0.39035000 0.39181400
0.39215700 0.39175900 0.39405700 0.39566700
0.39607800 0.39571200 0.39773700 0.39949500
0.40000000 0.39963700 0.40140700 0.40332300
0.40392200 0.40356000 0.40509800 0.40717900
0.40784300 0.40749500 0.40880900 0.41106200
0.41176500 0.41143600 0.41253500 0.41496300
0.41568600 0.41537500 0.41627100 0.41886900
0.41960800 0.41930600 0.42001300 0.42276700
0.42352900 0.42322700 0.42376800 0.42666600
0.42745100 0.42714300 0.42754100 0.43057000
0.43137300 0.43106000 0.43133900 0.43448100
0.43529400 0.43498600 0.43516700 0.43840300
0.43921600 0.43892500 0.43902400 0.44232900
0.44313700 0.44287500 0.44290300 0.44625800
0.44705900 0.44684300 0.44681100 0.45020700
0.45098000 0.45084300 0.45075200 0.45417700
0.45490200 0.45487200 0.45471800 0.45815500
0.45882400 0.45891700 0.45869700 0.46212600
0.46274500 0.46297600 0.46268700 0.46610200
0.46666700 0.46706200 0.46669200 0.47008400
0.47058800 0.47116200 0.47070300 0.47406800
0.47451000 0.47527700 0.47472200 0.47805100
0.47843100 0.47939700 0.47874100 0.48203000
0.48235300 0.48351500 0.48275500 0.48600200
0.48627500 0.48762700 0.48676500 0.48996400
0.49019600 0.49173100 0.49077100 0.49391700
0.49411800 0.49582800 0.49477400 0.49786100
0.49803900 0.49991800 0.49877300 0.50179700
0.50196100 0.50398600 0.50275700 0.50572000
0.50588200 0.50802300 0.50671400 0.50962300
0.50980400 0.51202900 0.51064600 0.51350800
0.51372500 0.51600500 0.51455200 0.51737400
0.51764700 0.51995400 0.51843200 0.52122400
0.52156900 0.52388000 0.52228600 0.52505900
0.52549000 0.52779300 0.52612100 0.52888300
0.52941200 0.53169700 0.52994200 0.53270200
0.53333300 0.53559400 0.53375100 0.53651200
0.53725500 0.53948900 0.53756100 0.54032300
0.54117600 0.54336900 0.54136400 0.54411900
0.54509800 0.54723700 0.54515500 0.54790300
0.54902000 0.55110800 0.54895200 0.55169400
0.55294100 0.55497600 0.55275200 0.55548200
0.55686300 0.55884100 0.55655900 0.55927200
0.56078400 0.56270300 0.56037800 0.56306600
0.56470600 0.56655700 0.56420500 0.56685900
0.56862700 0.57039800 0.56802400 0.57063900
0.57254900 0.57424200 0.57184000 0.57442000
0.57647100 0.57809800 0.57566700 0.57821900
0.58039200 0.58195700 0.57950300 0.58203200
0.58431400 0.58581100 0.58334100 0.58584500
0.58823500 0.58966000 0.58717600 0.58964900
0.59215700 0.59350700 0.59101300 0.59345400
0.59607800 0.59735200 0.59484900 0.59725900
0.60000000 0.60119700 0.59868400 0.60106300
0.60392200 0.60504100 0.60252200 0.60487100
0.60784300 0.60888400 0.60635900 0.60868200
0.61176500 0.61272800 0.61020000 0.61250100
0.61568600 0.61657300 0.61404000 0.61632100
0.61960800 0.62043200 0.61788700 0.62015500
0.62352900 0.62430100 0.62174100 0.62400100
0.62745100 0.62817400 0.62560200 0.62785400
0.63137300 0.63204600 0.62947200 0.63171200
0.63529400 0.63592600 0.63335700 0.63558500
0.63921600 0.63980600 0.63725200 0.63947600
0.64313700 0.64368000 0.64114900 0.64337200
0.64705900 0.64753500 0.64503800 0.64725800
0.65098000 0.65136500 0.64890700 0.65111900
0.65490200 0.65516100 0.65274600 0.65493800
0.65882400 0.65891900 0.65654900 0.65871100
0.66274500 0.66264200 0.66031600 0.66243900
0.66666700 0.66633400 0.66404600 0.66612300
0.67058800 0.67003700 0.66777000 0.66979700
0.67451000 0.67376300 0.67151400 0.67350300
0.67843100 0.67751400 0.67527900 0.67724200
0.68235300 0.68128700 0.67906500 0.68101600
0.68627500 0.68507400 0.68286600 0.68482200
0.69019600 0.68886400 0.68667100 0.68864600
0.69411800 0.69265100 0.69047000 0.69247000
0.69803900 0.69642500 0.69425400 0.69628000
0.70196100 0.70019200 0.69802900 0.70007100
0.70588200 0.70394200 0.70178500 0.70384300
0.70980400 0.70767400 0.70552000 0.70759500
0.71372500 0.71138700 0.70923700 0.71133400
0.71764700 0.71508300 0.71293400 0.71505900
0.72156900 0.71876900 0.71662000 0.71877200
0.72549000 0.72244600 0.72029800 0.72247400
0.72941200 0.72610900 0.72396100 0.72615700
0.73333300 0.72977300 0.72761600 0.72982900
0.73725500 0.73343900 0.73127300 0.73350900
0.74117600 0.73710100 0.73492700 0.73718700
0.74509800 0.74076100 0.73858000 0.74086600
0.74902000 0.74441900 0.74222700 0.74454300
0.75294100 0.74807300 0.74586900 0.74821900
0.75686300 0.75173100 0.74950800 0.75189400
0.76078400 0.75539700 0.75315400 0.75557700
0.76470600 0.75907100 0.75680800 0.75926800
0.76862700 0.76275000 0.76047200 0.76296400
0.77254900 0.76643000 0.76414300 0.76666400
0.77647100 0.77011700 0.76781600 0.77036100
0.78039200 0.77382000 0.77149500 0.77407000
0.78431400 0.77753500 0.77517800 0.77778900
0.78823500 0.78126400 0.77886900 0.78152400
0.79215700 0.78501100 0.78257500 0.78528100
0.79607800 0.78876600 0.78629300 0.78905400
0.80000000 0.79251600 0.79000900 0.79282400
0.80392200 0.79625600 0.79371300 0.79658100
0.80784300 0.79999500 0.79740400 0.80032500
0.81176500 0.80375800 0.80111400 0.80409100
0.81568600 0.80754800 0.80485900 0.80789500
0.81960800 0.81136400 0.80863900 0.81173600
0.82352900 0.81520000 0.81244700 0.81560400
0.82745100 0.81905500 0.81627900 0.81948900
0.83137300 0.82291900 0.82012200 0.82337600
0.83529400 0.82679400 0.82397800 0.82727000
0.83921600 0.83067100 0.82784600 0.83117000
0.84313700 0.83455400 0.83172300 0.83507300
0.84705900 0.83844500 0.83561100 0.83898600
0.85098000 0.84234600 0.83950700 0.84290900
0.85490200 0.84626200 0.84341900 0.84685100
0.85882400 0.85018100 0.84734300 0.85080200
0.86274500 0.85409800 0.85126900 0.85475000
0.86666700 0.85802100 0.85519900 0.85869400
0.87058800 0.86196700 0.85915100 0.86266200
0.87451000 0.86593600 0.86312500 0.86665900
0.87843100 0.86991700 0.86711300 0.87067200
0.88235300 0.87391300 0.87111400 0.87469900
0.88627500 0.87791800 0.87513000 0.87874000
0.89019600 0.88193000 0.87916300 0.88279400
0.89411800 0.88594400 0.88320900 0.88685300
0.89803900 0.88996700 0.88726600 0.89091500
0.90196100 0.89401200 0.89134500 0.89500100
0.90588200 0.89806700 0.89544000 0.89910300
0.90980400 0.90212200 0.89954100 0.90320900
0.91372500 0.90617200 0.90363800 0.90731100
0.91764700 0.91022700 0.90773300 0.91141200
0.92156900 0.91429800 0.91184400 0.91553600
0.92549000 0.91837600 0.91596400 0.91967300
0.92941200 0.92245700 0.92008800 0.92380900
0.93333300 0.92655300 0.92422400 0.92796000
0.93725500 0.93065400 0.92836800 0.93212100
0.94117600 0.93476100 0.93251400 0.93628500
0.94509800 0.93887700 0.93667500 0.94046000
0.94902000 0.94300200 0.94084600 0.94464200
0.95294100 0.94713200 0.94502700 0.94883000
0.95686300 0.95127200 0.94921900 0.95302600
0.96078400 0.95541900 0.95342300 0.95722900
0.96470600 0.95957400 0.95763700 0.96144000
0.96862700 0.96373600 0.96186200 0.96565800
0.97254900 0.96790600 0.96609600 0.96988400
0.97647100 0.97208200 0.97033600 0.97411800
0.98039200 0.97626500 0.97458100 0.97835800
0.98431400 0.98045500 0.97883300 0.98260600
0.98823500 0.98465100 0.98309000 0.98686100
0.99215700 0.98885400 0.98735300 0.99112300
0.99607800 0.99306400 0.99162200 0.99539300
1.00000000 0.99728100 0.99589700 0.99967000
END_DATA
