calibration/ULTRAGEAR+_#1_2026-08-14_12-37_D6500_2.2_F-S_XYZLUT+MTX/LG ULTRAGEAR+ 27gm950b_full white (i1 Pro 2).ccss
CCSS   

DESCRIPTOR "LG ULTRAGEAR+ 27gm950b_full white (i1 Pro 2)"
ORIGINATOR "Argyll ccxxmake"
CREATED "Fri Jul 24 21:18:33 2026"
REFERENCE "X-Rite i1 Pro 2"
REFERENCE_HASH "md5:df584e7effd560e2b56f1ec7cd58588a"
FIT_METHOD "ΔE*94"
MANUFACTURER_ID "GSM"
MANUFACTURER "LG Electronics"
DISPLAY "LG ULTRAGEAR+"
TECHNOLOGY "Unknown"
DISPLAY_TYPE_REFRESH "YES"
SPECTRAL_BANDS "109"
SPECTRAL_START_NM "370.000000"
SPECTRAL_END_NM "730.000000"
SPECTRAL_NORM "1.000000"

NUMBER_OF_FIELDS 110
BEGIN_DATA_FORMAT
SAMPLE_ID SPEC_370 SPEC_373 SPEC_377 SPEC_380 SPEC_383 SPEC_387 SPEC_390 SPEC_393 SPEC_397 SPEC_400 SPEC_403 SPEC_407 SPEC_410 SPEC_413 SPEC_417 SPEC_420 SPEC_423 SPEC_427 SPEC_430 SPEC_433 SPEC_437 SPEC_440 SPEC_443 SPEC_447 SPEC_450 SPEC_453 SPEC_457 SPEC_460 SPEC_463 SPEC_467 SPEC_470 SPEC_473 SPEC_477 SPEC_480 SPEC_483 SPEC_487 SPEC_490 SPEC_493 SPEC_497 SPEC_500 SPEC_503 SPEC_507 SPEC_510 SPEC_513 SPEC_517 SPEC_520 SPEC_523 SPEC_527 SPEC_530 SPEC_533 SPEC_537 SPEC_540 SPEC_543 SPEC_547 SPEC_550 SPEC_553 SPEC_557 SPEC_560 SPEC_563 SPEC_567 SPEC_570 SPEC_573 SPEC_577 SPEC_580 SPEC_583 SPEC_587 SPEC_590 SPEC_593 SPEC_597 SPEC_600 SPEC_603 SPEC_607 SPEC_610 SPEC_613 SPEC_617 SPEC_620 SPEC_623 SPEC_627 SPEC_630 SPEC_633 SPEC_637 SPEC_640 SPEC_643 SPEC_647 SPEC_650 SPEC_653 SPEC_657 SPEC_660 SPEC_663 SPEC_667 SPEC_670 SPEC_673 SPEC_677 SPEC_680 SPEC_683 SPEC_687 SPEC_690 SPEC_693 SPEC_697 SPEC_700 SPEC_703 SPEC_707 SPEC_710 SPEC_713 SPEC_717 SPEC_720 SPEC_723 SPEC_727 SPEC_730 
END_DATA_FORMAT

NUMBER_OF_SETS 4
BEGIN_DATA
1 0.0867937 0.0338094 0.0324986 0.0323223 0.00976934 0.0160397 0.0198898 0.00566673 0.00787389 0.01264 0.0163649 0.0304845 0.079004 0.168836 0.3895 0.885833 1.92072 3.86391 7.35475 13.7649 25.2307 43.2805 63.7859 76.0685 72.4288 58.0293 43.6498 33.4702 25.6652 18.7106 13.039 9.19733 6.93355 5.57214 4.6122 3.96936 3.82419 4.39017 5.93587 8.94978 13.8143 20.4631 28.7836 38.7136 50.1409 62.7767 74.9258 83.2712 84.2174 75.7219 59.7254 41.8672 26.8003 16.0813 9.34043 5.38777 3.15411 1.90241 1.19711 0.805169 0.578177 0.461035 0.44784 0.553041 0.820481 1.28367 1.97387 2.96837 4.45595 6.82471 10.5921 16.2053 23.9452 34.3359 48.5489 67.0642 86.5936 99.5086 98.3556 82.46 59.5443 38.7149 23.8064 14.356 8.6336 5.16868 3.08979 1.8494 1.12436 0.70247 0.453456 0.325336 0.225792 0.167306 0.134969 0.1115 0.109059 0.112432 0.0791218 0.070204 0.0699079 0.0952575 0.0804519 0.096406 0.0834073 0.0994952 0.135331 0.191 0.328465 
2 0.0370556 0.00519615 0.00971766 0.00996726 0.00849513 0.0108616 0.0100387 0.00738719 0.00440361 0.00655481 0.0130704 0.00735255 0.00750185 0.00969199 0.00793416 0.00682467 0.0102552 0.00936848 0.0125424 0.0251129 0.0408754 0.061075 0.0894433 0.10154 0.0925403 0.0701383 0.0512209 0.0389785 0.0324723 0.0248253 0.021775 0.0172166 0.0121942 0.00822854 0.00739558 0.0076157 0.00806878 0.00434358 0.00548949 0.0102706 0.0152047 0.0222966 0.0296979 0.0376967 0.0512118 0.0650889 0.079925 0.0870601 0.0834185 0.0643989 0.0490486 0.0371247 0.0229717 0.0107213 0.00569194 -0.000368728 -0.00321812 -0.00304588 -0.00362618 -0.00383919 3.9267e-005 0.0154077 0.0668222 0.2119 0.49073 0.946818 1.63921 2.63558 4.14296 6.54651 10.3677 16.0437 23.8626 34.3462 48.6911 67.4097 87.0942 100 98.722 82.7018 59.729 38.8141 23.8512 14.373 8.61339 5.12546 3.02088 1.77435 1.05148 0.644569 0.392742 0.23497 0.160313 0.0955239 0.05754 0.0402029 0.0153113 -0.00140456 0.00932388 -0.00309341 -0.0172471 0.0105035 0.001034 0.0142676 0.0141247 0.0087067 -0.00996313 -0.00669801 -0.024873 
3 0.0421281 0.0346688 0.0232852 0.0152349 0.00753845 0.00902673 0.0115061 0.0103992 0.00875467 0.0102729 0.00223859 -0.0011412 0.00379454 0.00308814 0.00359425 0.00565493 0.00196808 0.0016219 0.00796152 0.0193859 0.0336286 0.0640545 0.10493 0.126662 0.117071 0.0925563 0.0769575 0.0618212 0.0538775 0.0623217 0.106865 0.220619 0.449264 0.777276 1.11721 1.42582 1.8074 2.50144 3.83551 6.34695 10.5282 16.5344 24.4849 34.399 46.189 59.5097 72.5468 81.8331 83.5858 75.6453 59.8961 42.0775 26.9732 16.1925 9.404 5.42794 3.17793 1.92013 1.20883 0.80701 0.584158 0.451799 0.375835 0.337853 0.323459 0.327404 0.336552 0.342674 0.326936 0.309821 0.286609 0.268276 0.244949 0.222905 0.203315 0.191763 0.200141 0.199756 0.169483 0.131791 0.0939352 0.0571999 0.0416356 0.0396689 0.0345535 0.0268442 0.0156512 0.00967016 0.0327744 0.0525389 0.0466167 0.0351726 0.0347345 0.0449899 0.037566 0.0469216 0.0511824 0.0330304 0.0337662 0.0385341 0.0502963 0.0553271 0.0495963 0.0408719 0.0557904 0.0587287 0.049592 0.148689 0.291343 
4 -0.00269259 -0.00773423 0.00248759 0.00145081 0.00657426 0.00784696 0.00246392 -0.00270162 0.00119363 -0.00122792 -0.00424178 0.0134177 0.063937 0.159175 0.387724 0.890213 1.92564 3.87551 7.38833 13.8211 25.3523 43.5475 64.1554 76.4321 72.7232 58.2795 43.8633 33.6381 25.7878 18.783 13.0275 9.03758 6.53588 4.84074 3.53134 2.57793 2.0478 1.92668 2.15321 2.69475 3.43205 4.13222 4.6006 4.71839 4.47388 3.93001 3.16833 2.31588 1.50681 0.857151 0.426067 0.193295 0.0831757 0.032568 0.0143314 0.00830119 0.0068705 0.00747486 0.0108543 0.00837051 0.00314096 0.00804473 0.010666 0.00867036 0.00198606 0.00731549 0.0110316 0.015287 0.0202461 0.0185861 0.0165242 0.0186985 0.0277758 0.0416432 0.052348 0.077048 0.0968581 0.11013 0.11167 0.0945723 0.0793373 0.0561272 0.04259 0.0382209 0.0344285 0.0442823 0.0618871 0.0491888 0.0472647 0.0438693 0.0406859 0.0366754 0.0376289 0.0270087 0.0298993 0.0245066 0.0258718 0.0285226 0.0397789 0.0352882 0.0281057 0.0290866 0.0336227 0.0385341 0.0363068 0.0383201 0.0566566 0.0602852 0.0322597 
END_DATA
