calibration/ULTRAGEAR+_#1_2026-08-14_12-37_D6500_2.2_F-S_XYZLUT+MTX/ULTRAGEAR+_#1_2026-08-14_12-37_D6500_2.2_F-S_XYZLUT+MTX.bpc.ti3
CTI3   

DESCRIPTOR "Argyll Calibration Target chart information 3"
ORIGINATOR "Argyll dispread"
CREATED "Fri Aug 14 12:50:03 2026"
DEVICE_CLASS "DISPLAY"
SINGLE_DIM_STEPS "5"
COMP_GREY_STEPS "52"
MULTI_DIM_STEPS "5"
COLOR_REP "RGB_XYZ"
TARGET_INSTRUMENT "X-Rite i1 DisplayPro, ColorMunki Display"
DISPLAY_TYPE_REFRESH "YES"
DISPLAY_TYPE_BASE_ID "2"
INSTRUMENT_TYPE_SPECTRAL "NO"
LUMINANCE_XYZ_CDM2 "115.092240 121.169757 133.007084"
NORMALIZED_TO_Y_100 "YES"
VIDEO_LUT_CALIBRATION_POSSIBLE "YES"

BEGIN_ARGYLL_COLPROF_ARGS
-v -qh -aX -bn -C "No copyright. Created with DisplayCAL 3.9.19 and Argyll CMS 3.5.0" -M "LG ULTRAGEAR+" -A "Goldstar Company Ltd"
END_ARGYLL_COLPROF_ARGS

OBSERVER "1931_2"
USE_BLACK_POINT_COMPENSATION "NO"
BLACK_POINT_CORRECTION "0.0"
HIRES_B2A "YES"
HIRES_B2A_SIZE "-1"
SMOOTH_B2A "YES"
PATCH_SEQUENCE "OPTIMIZE_DISPLAY_RESPONSE_DELAY"

NUMBER_OF_FIELDS 7
BEGIN_DATA_FORMAT
SAMPLE_ID RGB_R RGB_G RGB_B XYZ_X XYZ_Y XYZ_Z
END_DATA_FORMAT

NUMBER_OF_SETS 175
BEGIN_DATA
1 100.0000 100.0000 100.0000 94.98430 100.0000 109.7692
2 100.0000 100.0000 75.00000 86.43581 96.90287 62.23633
3 100.0000 100.0000 100.0000 94.93321 100.0322 109.7705
4 100.0000 100.0000 100.0000 94.98430 100.0000 109.7692
5 0.000000 0.000000 0.000000 0.103051 0.108493 0.119092
6 25.00000 0.000000 0.000000 2.486057 1.200201 0.210364
7 50.00000 0.000000 0.000000 10.85598 5.039030 0.346569
8 75.00000 0.000000 0.000000 25.99316 11.98001 0.590936
9 100.0000 0.000000 0.000000 49.17863 22.61662 0.988128
10 100.0000 0.000000 25.00000 50.09038 22.95871 6.139227
11 100.0000 25.00000 25.00000 51.44468 26.51414 6.477146
12 100.0000 50.00000 25.00000 56.16011 38.81369 7.488707
13 100.0000 75.00000 25.00000 64.59603 60.65557 9.264346
14 0.000000 0.000000 25.00000 1.012396 0.450902 5.127700
15 25.00000 0.000000 25.00000 3.424317 1.556297 5.247674
16 75.00000 0.000000 100.0000 44.90994 19.06927 103.7160
17 100.0000 0.000000 100.0000 67.75341 29.54624 104.0594
18 1.960800 1.960800 1.960800 0.132978 0.140396 0.148347
19 3.921600 3.921600 3.921600 0.192143 0.203390 0.218023
20 5.882400 5.882400 5.882400 0.288431 0.305666 0.329684
21 7.843100 7.843100 7.843100 0.432161 0.454285 0.501825
22 9.803900 9.803900 9.803900 0.639771 0.676125 0.748067
23 11.76500 11.76500 11.76500 0.901199 0.951583 1.076569
24 13.72600 13.72600 13.72600 1.258105 1.318878 1.459856
25 15.68600 15.68600 15.68600 1.720841 1.803078 1.990915
26 17.64700 17.64700 17.64700 2.263937 2.370055 2.640215
27 19.60800 19.60800 19.60800 2.846640 3.000080 3.311166
28 21.56900 21.56900 21.56900 3.480135 3.661726 4.080829
29 23.52900 23.52900 23.52900 4.172798 4.383901 4.887975
30 27.45100 27.45100 27.45100 5.844181 6.131089 6.751363
31 29.41200 29.41200 29.41200 6.791954 7.106425 7.896388
32 31.37300 31.37300 31.37300 7.784120 8.175071 9.036172
33 33.33300 33.33300 33.33300 8.805481 9.230413 10.21695
34 35.29400 35.29400 35.29400 9.869099 10.37514 11.42551
35 37.25500 37.25500 37.25500 11.06044 11.62819 12.73942
36 39.21600 39.21600 39.21600 12.33653 12.96128 14.20332
37 41.17600 41.17600 41.17600 13.70741 14.38731 15.81002
38 43.13700 43.13700 43.13700 15.21814 15.99123 17.51824
39 45.09800 45.09800 45.09800 16.79761 17.65496 19.37773
40 47.05900 47.05900 47.05900 18.42325 19.37977 21.27926
41 49.02000 49.02000 49.02000 20.14247 21.20463 23.26758
42 50.98000 50.98000 50.98000 22.12197 23.25459 25.52132
43 52.94100 52.94100 52.94100 24.15255 25.37331 27.86001
44 54.90200 54.90200 54.90200 26.23031 27.55758 30.31618
45 56.86300 56.86300 56.86300 28.28426 29.67114 32.72193
46 58.82400 58.82400 58.82400 30.42238 31.97258 35.16446
47 60.78400 60.78400 60.78400 32.65538 34.30364 37.68207
48 62.74500 62.74500 62.74500 34.86959 36.66796 40.35132
49 64.70600 64.70600 64.70600 37.27782 39.24631 43.17424
50 66.66700 66.66700 66.66700 39.76479 41.85376 45.99704
51 68.62700 68.62700 68.62700 42.19644 44.33862 48.81759
52 70.58800 70.58800 70.58800 44.77102 47.06971 51.79305
53 72.54900 72.54900 72.54900 47.43321 49.92444 54.92116
54 76.47100 76.47100 76.47100 53.10643 55.93991 61.55766
55 78.43100 78.43100 78.43100 55.99030 59.06996 64.84056
56 80.39200 80.39200 80.39200 58.97368 62.16940 68.34781
57 82.35300 82.35300 82.35300 62.16259 65.54365 71.93465
58 84.31400 84.31400 84.31400 65.55015 69.07168 75.82443
59 86.27500 86.27500 86.27500 69.06488 72.63039 79.93970
60 88.23500 88.23500 88.23500 72.59536 76.40466 83.98438
61 90.19600 90.19600 90.19600 76.20459 80.20803 88.02895
62 92.15700 92.15700 92.15700 80.01246 84.16518 92.37645
63 94.11800 94.11800 94.11800 83.70929 88.09218 96.57367
64 96.07800 96.07800 96.07800 87.54946 92.05039 101.0716
65 98.03900 98.03900 98.03900 91.47101 96.00391 105.3425
66 25.00000 25.00000 0.000000 3.838766 4.644542 0.487977
67 50.00000 25.00000 0.000000 12.26680 8.524888 0.625592
68 75.00000 25.00000 0.000000 27.41277 15.49071 0.872531
69 100.0000 25.00000 0.000000 50.47672 26.13067 1.272805
70 100.0000 50.00000 0.000000 55.20010 38.39493 2.253334
71 50.00000 50.00000 0.000000 16.97565 20.62154 1.592905
72 75.00000 50.00000 0.000000 32.13208 27.63158 1.842880
73 25.00000 50.00000 0.000000 8.516153 16.69550 1.452458
74 25.00000 75.00000 0.000000 16.99547 38.55427 3.196702
75 50.00000 75.00000 0.000000 25.48910 42.50766 3.338794
76 75.00000 75.00000 0.000000 40.63844 49.52404 3.589810
77 100.0000 75.00000 0.000000 63.63159 60.24991 3.998958
78 25.00000 100.0000 0.000000 29.91515 71.88035 5.862580
79 50.00000 100.0000 0.000000 38.41402 75.77425 5.999088
80 75.00000 100.0000 0.000000 53.50714 82.68361 6.242338
81 100.0000 100.0000 0.000000 76.35442 93.13115 6.630835
82 100.0000 100.0000 25.00000 77.19713 93.39978 11.98861
83 50.00000 0.000000 25.00000 11.87269 5.430530 5.424509
84 50.00000 25.00000 50.00000 16.56420 10.19092 23.58391
85 0.000000 25.00000 0.000000 1.426250 3.513533 0.446952
86 0.000000 25.00000 25.00000 2.354924 3.888655 5.510141
87 25.49000 25.49000 25.49000 4.956405 5.203968 5.762604
88 50.00000 25.00000 25.00000 13.28516 8.942709 5.745582
89 75.00000 25.00000 25.00000 28.42227 15.90386 6.020230
90 0.000000 50.00000 0.000000 6.070167 15.49955 1.406697
91 0.000000 50.00000 25.00000 7.027884 15.94236 6.501092
92 25.00000 50.00000 25.00000 9.512749 17.16390 6.585063
93 50.00000 50.00000 25.00000 18.04992 21.13127 6.750903
94 75.00000 50.00000 25.00000 33.18447 28.13101 7.025788
95 0.000000 75.00000 0.000000 14.53587 37.36057 3.150976
96 0.000000 75.00000 25.00000 15.50662 37.80984 8.277137
97 25.00000 75.00000 25.00000 18.00003 39.02939 8.362430
98 50.00000 75.00000 25.00000 26.59006 43.02067 8.530236
99 75.00000 75.00000 25.00000 41.68354 50.02512 8.807893
100 0.000000 100.0000 0.000000 27.46127 70.76658 5.824370
101 0.000000 100.0000 25.00000 28.37941 71.11001 11.01812
102 25.00000 100.0000 25.00000 30.83431 72.20981 11.09200
103 50.00000 100.0000 25.00000 39.45557 76.12474 11.25246
104 75.00000 100.0000 25.00000 54.50776 83.03520 11.52399
105 0.000000 0.000000 50.00000 4.210629 1.652704 22.80264
106 25.00000 0.000000 50.00000 6.654023 2.771071 22.96704
107 50.00000 0.000000 50.00000 15.13007 6.657638 23.16997
108 75.00000 0.000000 50.00000 30.28090 13.60530 23.49625
109 100.0000 0.000000 50.00000 53.25806 24.14114 24.13080
110 100.0000 0.000000 75.00000 59.03727 26.30618 56.19385
111 100.0000 25.00000 75.00000 60.45705 29.92202 56.66877
112 75.00000 0.000000 25.00000 27.01430 12.37463 5.697152
113 75.00000 25.00000 50.00000 31.70980 17.15485 23.93683
114 100.0000 25.00000 50.00000 54.62770 27.72492 24.57832
115 25.00000 25.00000 50.00000 8.045947 6.269344 23.38982
116 25.00000 50.00000 50.00000 12.78289 18.43710 24.44558
117 75.00000 50.00000 50.00000 36.54412 29.44232 24.99852
118 100.0000 50.00000 50.00000 59.46312 40.12423 25.66370
119 100.0000 50.00000 75.00000 65.28484 42.34915 57.73365
120 25.00000 75.00000 50.00000 21.31646 40.35078 26.30706
121 50.00000 75.00000 50.00000 29.83513 44.30078 26.51955
122 75.00000 75.00000 50.00000 45.00907 51.31481 26.84738
123 100.0000 75.00000 50.00000 67.86317 61.95967 27.51786
124 100.0000 75.00000 75.00000 73.67234 64.19151 59.58115
125 25.00000 100.0000 50.00000 34.16352 73.43456 29.19138
126 50.00000 100.0000 50.00000 42.73172 77.35231 29.39534
127 75.00000 100.0000 50.00000 57.84963 84.24373 29.71769
128 100.0000 100.0000 50.00000 80.51144 94.61421 30.37024
129 25.00000 0.000000 75.00000 12.47347 4.957042 54.97149
130 50.00000 0.000000 75.00000 20.97764 8.856152 55.17625
131 75.00000 0.000000 75.00000 36.10315 15.79353 55.48021
132 75.00000 25.00000 75.00000 37.54968 19.36377 55.99302
133 75.00000 50.00000 100.0000 51.21427 35.05064 105.1800
134 25.00000 25.00000 75.00000 13.88377 8.477482 55.45550
135 25.00000 50.00000 100.0000 27.47187 24.05739 104.7897
136 0.000000 25.00000 50.00000 5.579553 5.114033 23.26063
137 0.000000 25.00000 75.00000 11.39374 7.310441 55.28014
138 0.000000 50.00000 75.00000 16.10787 19.43931 56.34602
139 25.00000 50.00000 75.00000 18.63026 20.68166 56.49987
140 50.00000 50.00000 75.00000 27.18906 24.65364 56.73102
141 75.00000 50.00000 75.00000 42.35491 31.67019 57.04097
142 74.51000 74.51000 74.51000 50.35664 52.96153 58.27689
143 0.000000 75.00000 75.00000 24.61133 41.30855 58.19296
144 25.00000 75.00000 75.00000 27.17184 42.55026 58.34641
145 50.00000 75.00000 75.00000 35.72216 46.56169 58.57855
146 0.000000 75.00000 50.00000 18.80555 39.07682 26.14543
147 0.000000 100.0000 50.00000 31.65972 72.31548 29.04665
148 0.000000 100.0000 75.00000 37.40831 74.42456 61.08313
149 25.00000 100.0000 75.00000 39.95730 75.60550 61.31066
150 50.00000 100.0000 75.00000 48.66086 79.52033 61.53906
151 75.00000 100.0000 75.00000 63.64578 86.41474 61.84802
152 75.00000 100.0000 100.0000 72.42784 89.63293 109.6074
153 25.00000 0.000000 100.0000 21.31605 8.241243 103.5352
154 50.00000 0.000000 100.0000 29.86567 12.16176 103.6646
155 0.000000 0.000000 75.00000 10.02036 3.833205 54.84173
156 0.000000 0.000000 100.0000 18.85584 7.110884 103.5405
157 0.000000 25.00000 100.0000 20.22083 10.61301 103.8232
158 25.00000 25.00000 100.0000 22.70701 11.79064 103.8256
159 50.00000 25.00000 100.0000 31.30627 15.75179 103.9584
160 75.00000 25.00000 100.0000 46.42566 22.69897 104.2672
161 100.0000 25.00000 100.0000 69.10940 33.16466 104.5807
162 100.0000 50.00000 100.0000 73.94595 45.66500 105.6472
163 50.00000 25.00000 75.00000 22.45187 12.42092 55.71831
164 50.00000 50.00000 100.0000 36.10415 28.09910 105.0217
165 0.000000 50.00000 50.00000 10.28464 17.21591 24.33089
166 0.000000 50.00000 100.0000 24.94699 22.81796 104.7867
167 0.000000 75.00000 100.0000 33.39697 44.68885 106.5588
168 25.00000 75.00000 100.0000 35.92519 45.92951 106.5619
169 50.00000 75.00000 100.0000 44.66793 49.96640 106.7173
170 75.00000 75.00000 100.0000 59.74310 56.95068 106.9521
171 100.0000 75.00000 100.0000 82.37989 67.53540 107.3441
172 0.000000 100.0000 100.0000 46.14127 77.64849 109.2199
173 25.00000 100.0000 100.0000 48.70905 78.79618 109.2958
174 50.00000 100.0000 100.0000 57.37304 82.80398 109.4513
175 100.0000 100.0000 100.0000 94.87525 99.94339 109.9951
END_DATA
CAL    

DESCRIPTOR "Argyll Device Calibration State"
ORIGINATOR "Argyll dispread"
CREATED "Fri Aug 14 12:50:03 2026"
DEVICE_CLASS "DISPLAY"
COLOR_REP "RGB"

BEGIN_ARGYLL_DISPCAL_ARGS
-v2 -ql -t6500 -g2.2 -f1.0 -A4.0 -d1 -c1 -yr -P0.5,0.5,1.0 -X "LG ULTRAGEAR+ 27gm950b_full white (i1 Pro 2).ccss"
END_ARGYLL_DISPCAL_ARGS


NUMBER_OF_FIELDS 4
BEGIN_DATA_FORMAT
RGB_I RGB_R RGB_G RGB_B
END_DATA_FORMAT

NUMBER_OF_SETS 256
BEGIN_DATA
0.00000000 0.00825182 0.00527214 0.00000000
0.00392157 0.01058770 0.00769383 0.00000000
0.00784314 0.01297870 0.01017400 0.00238252
0.01176470 0.01542670 0.01271480 0.00520675
0.01568630 0.01793390 0.01531840 0.00808295
0.01960780 0.02050250 0.01798730 0.01101260
0.02352940 0.02313460 0.02072380 0.01399710
0.02745100 0.02583260 0.02353070 0.01703810
0.03137250 0.02859920 0.02641070 0.02013720
0.03529410 0.03143690 0.02936660 0.02329600
0.03921570 0.03434860 0.03240150 0.02651640
0.04313730 0.03733700 0.03551870 0.02980010
0.04705880 0.04040540 0.03872130 0.03314710
0.05098040 0.04355600 0.04200990 0.03655860
0.05490200 0.04678950 0.04538420 0.04003630
0.05882350 0.05010690 0.04884080 0.04358000
0.06274510 0.05350720 0.05237930 0.04719510
0.06666670 0.05699350 0.05600180 0.05088840
0.07058820 0.06056880 0.05970990 0.05466210
0.07450980 0.06423460 0.06350100 0.05851170
0.07843140 0.06798460 0.06736800 0.06243790
0.08235290 0.07181350 0.07130740 0.06645000
0.08627450 0.07572330 0.07532150 0.07055550
0.09019610 0.07971850 0.07941020 0.07474300
0.09411760 0.08379040 0.08356190 0.07900320
0.09803920 0.08792850 0.08777000 0.08333500
0.10196100 0.09212640 0.09203330 0.08772850
0.10588200 0.09637460 0.09634110 0.09216830
0.10980400 0.10066400 0.10068100 0.09663510
0.11372500 0.10497500 0.10504000 0.10111100
0.11764700 0.10929900 0.10940400 0.10557000
0.12156900 0.11361400 0.11375300 0.11001800
0.12549000 0.11791100 0.11809200 0.11445700
0.12941200 0.12219700 0.12241800 0.11888600
0.13333300 0.12646800 0.12672500 0.12330000
0.13725500 0.13072200 0.13101000 0.12768800
0.14117600 0.13495600 0.13526700 0.13204100
0.14509800 0.13916100 0.13948500 0.13636400
0.14902000 0.14333300 0.14367500 0.14066200
0.15294100 0.14747800 0.14784000 0.14494100
0.15686300 0.15160100 0.15199100 0.14918600
0.16078400 0.15570900 0.15611700 0.15340500
0.16470600 0.15979200 0.16021900 0.15761000
0.16862700 0.16385900 0.16431700 0.16180500
0.17254900 0.16792600 0.16841300 0.16599300
0.17647100 0.17199300 0.17251100 0.17015700
0.18039200 0.17606500 0.17660900 0.17428100
0.18431400 0.18012900 0.18068200 0.17836100
0.18823500 0.18416600 0.18472600 0.18241700
0.19215700 0.18816900 0.18874700 0.18646000
0.19607800 0.19215700 0.19276100 0.19049400
0.20000000 0.19614300 0.19676800 0.19451700
0.20392200 0.20012600 0.20076400 0.19853600
0.20784300 0.20410300 0.20474900 0.20256100
0.21176500 0.20808000 0.20873800 0.20658300
0.21568600 0.21206800 0.21272100 0.21060000
0.21960800 0.21605600 0.21669700 0.21460600
0.22352900 0.22004400 0.22066500 0.21859600
0.22745100 0.22403000 0.22461400 0.22258200
0.23137300 0.22800200 0.22855000 0.22656700
0.23529400 0.23197400 0.23248900 0.23055000
0.23921600 0.23595700 0.23643000 0.23452000
0.24313700 0.23994600 0.24036300 0.23848200
0.24705900 0.24393000 0.24428500 0.24244000
0.25098000 0.24791100 0.24820000 0.24639600
0.25490200 0.25189200 0.25211100 0.25035300
0.25882400 0.25587600 0.25602400 0.25430900
0.26274500 0.25986700 0.25993900 0.25826300
0.26666700 0.26385800 0.26385000 0.26221600
0.27058800 0.26784400 0.26775700 0.26616900
0.27451000 0.27182500 0.27165600 0.27012100
0.27843100 0.27579700 0.27555400 0.27405500
0.28235300 0.27976500 0.27944500 0.27795900
0.28627500 0.28371400 0.28331200 0.28182700
0.29019600 0.28762600 0.28714600 0.28567000
0.29411800 0.29149400 0.29094700 0.28949600
0.29803900 0.29533300 0.29473900 0.29330200
0.30196100 0.29915900 0.29852700 0.29708400
0.30588200 0.30296900 0.30230300 0.30082300
0.30980400 0.30675900 0.30606300 0.30450900
0.31372500 0.31051400 0.30978800 0.30815200
0.31764700 0.31422100 0.31347900 0.31175800
0.32156900 0.31789700 0.31715100 0.31533100
0.32549000 0.32154800 0.32080500 0.31887500
0.32941200 0.32517800 0.32444300 0.32239600
0.33333300 0.32879000 0.32806900 0.32589500
0.33725500 0.33238700 0.33168600 0.32937300
0.34117600 0.33597200 0.33529400 0.33286300
0.34509800 0.33954800 0.33891000 0.33637300
0.34902000 0.34314600 0.34255000 0.33990400
0.35294100 0.34676400 0.34621000 0.34345600
0.35686300 0.35040200 0.34989200 0.34702700
0.36078400 0.35406000 0.35359400 0.35062000
0.36470600 0.35773500 0.35731200 0.35423700
0.36862700 0.36142800 0.36105300 0.35786900
0.37254900 0.36514000 0.36480600 0.36151600
0.37647100 0.36885700 0.36856700 0.36518900
0.38039200 0.37259200 0.37235000 0.36888300
0.38431400 0.37634800 0.37615000 0.37259500
0.38823500 0.38012100 0.37996500 0.37631000
0.39215700 0.38390500 0.38378200 0.38002300
0.39607800 0.38769000 0.38759700 0.38373000
0.40000000 0.39147400 0.39140500 0.38742200
0.40392200 0.39524800 0.39519700 0.39109600
0.40784300 0.39900000 0.39896800 0.39475900
0.41176500 0.40273300 0.40272200 0.39843100
0.41568600 0.40646100 0.40648900 0.40212800
0.41960800 0.41021500 0.41029100 0.40585200
0.42352900 0.41400200 0.41412600 0.40960600
0.42745100 0.41782000 0.41799200 0.41338900
0.43137300 0.42166500 0.42188400 0.41719300
0.43529400 0.42553000 0.42579300 0.42101600
0.43921600 0.42940500 0.42971700 0.42485400
0.44313700 0.43329000 0.43365400 0.42870400
0.44705900 0.43718300 0.43760000 0.43256100
0.45098000 0.44108100 0.44154700 0.43642100
0.45490200 0.44497800 0.44549000 0.44028500
0.45882400 0.44887200 0.44943000 0.44416300
0.46274500 0.45277600 0.45338400 0.44805800
0.46666700 0.45670000 0.45735000 0.45197100
0.47058800 0.46064300 0.46131800 0.45588300
0.47451000 0.46458500 0.46527400 0.45979400
0.47843100 0.46852900 0.46923700 0.46371800
0.48235300 0.47249400 0.47321300 0.46766300
0.48627500 0.47648400 0.47720900 0.47163600
0.49019600 0.48050600 0.48122500 0.47563600
0.49411800 0.48455700 0.48526300 0.47966600
0.49803900 0.48864100 0.48932900 0.48373400
0.50196100 0.49276300 0.49342600 0.48784200
0.50588200 0.49692400 0.49755400 0.49199000
0.50980400 0.50112400 0.50171200 0.49617900
0.51372500 0.50536600 0.50589500 0.50037500
0.51764700 0.50960700 0.51005900 0.50454500
0.52156900 0.51381700 0.51420100 0.50868900
0.52549000 0.51799600 0.51832000 0.51280700
0.52941200 0.52214500 0.52241700 0.51689800
0.53333300 0.52626100 0.52648500 0.52095300
0.53725500 0.53034000 0.53052300 0.52497200
0.54117600 0.53438200 0.53453000 0.52895500
0.54509800 0.53838800 0.53850500 0.53290300
0.54902000 0.54236100 0.54245800 0.53681800
0.55294100 0.54630300 0.54638100 0.54069400
0.55686300 0.55020500 0.55027600 0.54453800
0.56078400 0.55408600 0.55416200 0.54836600
0.56470600 0.55795700 0.55803900 0.55218100
0.56862700 0.56182000 0.56190900 0.55598500
0.57254900 0.56567300 0.56577100 0.55978200
0.57647100 0.56952000 0.56962600 0.56357700
0.58039200 0.57336100 0.57347000 0.56736800
0.58431400 0.57720100 0.57732300 0.57117000
0.58823500 0.58106200 0.58119800 0.57498700
0.59215700 0.58494100 0.58508800 0.57881600
0.59607800 0.58883200 0.58898400 0.58265100
0.60000000 0.59272000 0.59287900 0.58648500
0.60392200 0.59660700 0.59677700 0.59032200
0.60784300 0.60049400 0.60067900 0.59416000
0.61176500 0.60438200 0.60459100 0.59800800
0.61568600 0.60828000 0.60851200 0.60186400
0.61960800 0.61218200 0.61244200 0.60572800
0.62352900 0.61608700 0.61637500 0.60959800
0.62745100 0.61999000 0.62031700 0.61347300
0.63137300 0.62390700 0.62428200 0.61736600
0.63529400 0.62784400 0.62826900 0.62127700
0.63921600 0.63179300 0.63226700 0.62519500
0.64313700 0.63574600 0.63627200 0.62911700
0.64705900 0.63970600 0.64027800 0.63303900
0.65098000 0.64365700 0.64426900 0.63694300
0.65490200 0.64758800 0.64823800 0.64082100
0.65882400 0.65148600 0.65217200 0.64466500
0.66274500 0.65534300 0.65606700 0.64847400
0.66666700 0.65915900 0.65991900 0.65224900
0.67058800 0.66292900 0.66372500 0.65599000
0.67451000 0.66665300 0.66748600 0.65969600
0.67843100 0.67033600 0.67123400 0.66337900
0.68235300 0.67403300 0.67501600 0.66707700
0.68627500 0.67776300 0.67883300 0.67079700
0.69019600 0.68152800 0.68268500 0.67454000
0.69411800 0.68532800 0.68656700 0.67830600
0.69803900 0.68915900 0.69047700 0.68209600
0.70196100 0.69301800 0.69441100 0.68591200
0.70588200 0.69690500 0.69836400 0.68975700
0.70980400 0.70081100 0.70233100 0.69362300
0.71372500 0.70472800 0.70629100 0.69750200
0.71764700 0.70863400 0.71023700 0.70137000
0.72156900 0.71252800 0.71417300 0.70523200
0.72549000 0.71641400 0.71810000 0.70908700
0.72941200 0.72029300 0.72201400 0.71293500
0.73333300 0.72416300 0.72591500 0.71677100
0.73725500 0.72802200 0.72979900 0.72059500
0.74117600 0.73186700 0.73368300 0.72440700
0.74509800 0.73571900 0.73756700 0.72822000
0.74902000 0.73957500 0.74145300 0.73203900
0.75294100 0.74344000 0.74534500 0.73586800
0.75686300 0.74731500 0.74924200 0.73970700
0.76078400 0.75120100 0.75314600 0.74355400
0.76470600 0.75509800 0.75705700 0.74741000
0.76862700 0.75900100 0.76097600 0.75127600
0.77254900 0.76291100 0.76490000 0.75515100
0.77647100 0.76682400 0.76882500 0.75903500
0.78039200 0.77073600 0.77274700 0.76291900
0.78431400 0.77464800 0.77668000 0.76680100
0.78823500 0.77857400 0.78062500 0.77069300
0.79215700 0.78251400 0.78457800 0.77459500
0.79607800 0.78646500 0.78853500 0.77850800
0.80000000 0.79042200 0.79248200 0.78242900
0.80392200 0.79436700 0.79641100 0.78634400
0.80784300 0.79829700 0.80032100 0.79025200
0.81176500 0.80221200 0.80424000 0.79415000
0.81568600 0.80615000 0.80819600 0.79806200
0.81960800 0.81012700 0.81218700 0.80200900
0.82352900 0.81414000 0.81620900 0.80598900
0.82745100 0.81818900 0.82025900 0.81000600
0.83137300 0.82226900 0.82432000 0.81406100
0.83529400 0.82636200 0.82839200 0.81813500
0.83921600 0.83047500 0.83248300 0.82222700
0.84313700 0.83461200 0.83658800 0.82634400
0.84705900 0.83876100 0.84069000 0.83048200
0.85098000 0.84290400 0.84478200 0.83461900
0.85490200 0.84704100 0.84886400 0.83875000
0.85882400 0.85116700 0.85292700 0.84287200
0.86274500 0.85527300 0.85696800 0.84697700
0.86666700 0.85936100 0.86100400 0.85107000
0.87058800 0.86345700 0.86505500 0.85516500
0.87451000 0.86756900 0.86912100 0.85927300
0.87843100 0.87169500 0.87320100 0.86339600
0.88235300 0.87583500 0.87729300 0.86754000
0.88627500 0.87998200 0.88138200 0.87170200
0.89019600 0.88412600 0.88546900 0.87586500
0.89411800 0.88826400 0.88954500 0.88003000
0.89803900 0.89239400 0.89362300 0.88419200
0.90196100 0.89653800 0.89771300 0.88836500
0.90588200 0.90069600 0.90181200 0.89255500
0.90980400 0.90485200 0.90589500 0.89675800
0.91372500 0.90898600 0.90995700 0.90094500
0.91764700 0.91310900 0.91401700 0.90512100
0.92156900 0.91724000 0.91808200 0.90930400
0.92549000 0.92137400 0.92214200 0.91349600
0.92941200 0.92549900 0.92619600 0.91768700
0.93333300 0.92963200 0.93025800 0.92188200
0.93725500 0.93376600 0.93431400 0.92608600
0.94117600 0.93789500 0.93837000 0.93028900
0.94509800 0.94202400 0.94242900 0.93449300
0.94902000 0.94616100 0.94649400 0.93870700
0.95294100 0.95029900 0.95056200 0.94292700
0.95686300 0.95444000 0.95463400 0.94715300
0.96078400 0.95858600 0.95871100 0.95138500
0.96470600 0.96273400 0.96279100 0.95562200
0.96862700 0.96688500 0.96687400 0.95986500
0.97254900 0.97103700 0.97095700 0.96411100
0.97647100 0.97518900 0.97503700 0.96835900
0.98039200 0.97934100 0.97911600 0.97260700
0.98431400 0.98349200 0.98319200 0.97685700
0.98823500 0.98764200 0.98726600 0.98110700
0.99215700 0.99179200 0.99133700 0.98535700
0.99607800 0.99594200 0.99540600 0.98960900
1.00000000 1.00000000 0.99947300 0.99386100
END_DATA
