calibration/HDR_4K_#2_2026-08-14_13-14_D6500_2.2_F-S_XYZLUT+MTX/HDR_4K_#2_2026-08-14_13-14_D6500_2.2_F-S_XYZLUT+MTX.cal
CAL    

DESCRIPTOR "Argyll Device Calibration Curves"
ORIGINATOR "Argyll dispcal"
CREATED "Fri Aug 14 13:28:47 2026"
DEVICE_CLASS "DISPLAY"
COLOR_REP "RGB"
VIDEO_LUT_CALIBRATION_POSSIBLE "YES"
TV_OUTPUT_ENCODING "NO"
DEVICE_TYPE "r"
TARGET_WHITE_XYZ "112.146617 118.027735 128.358299"
TARGET_GAMMA "2.2"
DEGREE_OF_BLACK_OUTPUT_OFFSET "1.0"
BLACK_POINT_CORRECTION "0.348968"
BLACK_NEUTRAL_BLEND_RATE "4.0"
QUALITY "low"

BEGIN_ARGYLL_DISPCAL_ARGS
-v2 -d2 -c1 -yr -P0.5,0.5,1.0 -X "LG 27UL850W by 4KM (i1 Pro 2).ccss" -ql -t6500 -g2.2 -f1.0 -A4.0
END_ARGYLL_DISPCAL_ARGS


NUMBER_OF_FIELDS 4
BEGIN_DATA_FORMAT
RGB_I RGB_R RGB_G RGB_B
END_DATA_FORMAT

NUMBER_OF_SETS 256
BEGIN_DATA
0.000000000 0.015619500 0.011894000 0.000000000
0.003921570 0.018010300 0.014527000 0.000000000
0.007843140 0.020461100 0.017218500 0.000892968
0.011764700 0.022974400 0.019970400 0.004026320
0.015686300 0.025552500 0.022784700 0.007237070
0.019607800 0.028197900 0.025663700 0.010528100
0.023529400 0.030913300 0.028609600 0.013902600
0.027451000 0.033701600 0.031624600 0.017363500
0.031372500 0.036565700 0.034711400 0.020914500
0.035294100 0.039508700 0.037872500 0.024558900
0.039215700 0.042533900 0.041110600 0.028300600
0.043137300 0.045644900 0.044428500 0.032139500
0.047058800 0.048845300 0.047828500 0.036063300
0.050980400 0.052135900 0.051306300 0.040055700
0.054902000 0.055511500 0.054859700 0.044098100
0.058823500 0.058968200 0.058483100 0.048184600
0.062745100 0.062499700 0.062180500 0.052308700
0.066666700 0.066107200 0.065947800 0.056454900
0.070588200 0.069789300 0.069773600 0.060613100
0.074509800 0.073539800 0.073649200 0.064784000
0.078431400 0.077352300 0.077571900 0.068979700
0.082352900 0.081223700 0.081546500 0.073211200
0.086274500 0.085157000 0.085582000 0.077480000
0.090196100 0.089159900 0.089683200 0.081789700
0.094117600 0.093233300 0.093835900 0.086141400
0.098039200 0.097365100 0.098032900 0.090539500
0.101961000 0.101551000 0.102263000 0.094978800
0.105882000 0.105786000 0.106512000 0.099453500
0.109804000 0.110055000 0.110768000 0.103949000
0.113725000 0.114349000 0.115030000 0.108464000
0.117647000 0.118660000 0.119293000 0.112991000
0.121569000 0.122977000 0.123558000 0.117525000
0.125490000 0.127294000 0.127823000 0.122060000
0.129412000 0.131600000 0.132089000 0.126576000
0.133333000 0.135893000 0.136356000 0.131049000
0.137255000 0.140170000 0.140610000 0.135474000
0.141176000 0.144412000 0.144834000 0.139855000
0.145098000 0.148600000 0.149024000 0.144195000
0.149020000 0.152736000 0.153186000 0.148486000
0.152941000 0.156828000 0.157329000 0.152737000
0.156863000 0.160889000 0.161438000 0.156959000
0.160784000 0.164912000 0.165510000 0.161154000
0.164706000 0.168903000 0.169554000 0.165327000
0.168627000 0.172874000 0.173566000 0.169482000
0.172549000 0.176824000 0.177549000 0.173611000
0.176471000 0.180763000 0.181522000 0.177710000
0.180392000 0.184700000 0.185480000 0.181784000
0.184314000 0.188622000 0.189419000 0.185836000
0.188235000 0.192521000 0.193334000 0.189863000
0.192157000 0.196405000 0.197231000 0.193861000
0.196078000 0.200279000 0.201108000 0.197834000
0.200000000 0.204140000 0.204967000 0.201789000
0.203922000 0.207988000 0.208809000 0.205715000
0.207843000 0.211825000 0.212649000 0.209612000
0.211765000 0.215663000 0.216490000 0.213484000
0.215686000 0.219494000 0.220326000 0.217330000
0.219608000 0.223315000 0.224160000 0.221161000
0.223529000 0.227127000 0.227998000 0.224991000
0.227451000 0.230929000 0.231842000 0.228817000
0.231373000 0.234730000 0.235709000 0.232633000
0.235294000 0.238547000 0.239604000 0.236440000
0.239216000 0.242380000 0.243517000 0.240242000
0.243137000 0.246215000 0.247442000 0.244040000
0.247059000 0.250052000 0.251386000 0.247837000
0.250980000 0.253894000 0.255348000 0.251633000
0.254902000 0.257739000 0.259331000 0.255430000
0.258824000 0.261595000 0.263317000 0.259230000
0.262745000 0.265457000 0.267295000 0.263031000
0.266667000 0.269317000 0.271263000 0.266830000
0.270588000 0.273174000 0.275214000 0.270623000
0.274510000 0.277028000 0.279142000 0.274408000
0.278431000 0.280875000 0.283044000 0.278176000
0.282353000 0.284715000 0.286904000 0.281919000
0.286275000 0.288530000 0.290712000 0.285651000
0.290196000 0.292315000 0.294468000 0.289381000
0.294118000 0.296071000 0.298194000 0.293099000
0.298039000 0.299816000 0.301897000 0.296801000
0.301961000 0.303552000 0.305570000 0.300485000
0.305882000 0.307268000 0.309211000 0.304136000
0.309804000 0.310965000 0.312820000 0.307759000
0.313725000 0.314633000 0.316391000 0.311357000
0.317647000 0.318269000 0.319934000 0.314933000
0.321569000 0.321884000 0.323452000 0.318490000
0.325490000 0.325477000 0.326952000 0.322027000
0.329412000 0.329052000 0.330442000 0.325542000
0.333333000 0.332611000 0.333918000 0.329038000
0.337255000 0.336151000 0.337380000 0.332527000
0.341176000 0.339673000 0.340833000 0.336027000
0.345098000 0.343193000 0.344307000 0.339536000
0.349020000 0.346727000 0.347805000 0.343055000
0.352941000 0.350274000 0.351329000 0.346587000
0.356863000 0.353833000 0.354880000 0.350136000
0.360784000 0.357408000 0.358460000 0.353705000
0.364706000 0.361001000 0.362068000 0.357300000
0.368627000 0.364617000 0.365708000 0.360920000
0.372549000 0.368255000 0.369381000 0.364573000
0.376471000 0.371917000 0.373097000 0.368257000
0.380392000 0.375618000 0.376854000 0.371971000
0.384314000 0.379353000 0.380647000 0.375700000
0.388235000 0.383121000 0.384468000 0.379434000
0.392157000 0.386902000 0.388301000 0.383168000
0.396078000 0.390685000 0.392144000 0.386898000
0.400000000 0.394463000 0.395981000 0.390613000
0.403922000 0.398222000 0.399801000 0.394298000
0.407843000 0.401950000 0.403594000 0.397957000
0.411765000 0.405643000 0.407366000 0.401617000
0.415686000 0.409321000 0.411140000 0.405281000
0.419608000 0.413002000 0.414917000 0.408945000
0.423529000 0.416684000 0.418699000 0.412601000
0.427451000 0.420364000 0.422484000 0.416250000
0.431373000 0.424042000 0.426265000 0.419888000
0.435294000 0.427711000 0.430037000 0.423519000
0.439216000 0.431369000 0.433807000 0.427141000
0.443137000 0.435020000 0.437576000 0.430751000
0.447059000 0.438668000 0.441335000 0.434345000
0.450980000 0.442310000 0.445085000 0.437925000
0.454902000 0.445947000 0.448825000 0.441489000
0.458824000 0.449576000 0.452562000 0.445048000
0.462745000 0.453211000 0.456309000 0.448614000
0.466667000 0.456862000 0.460058000 0.452181000
0.470588000 0.460522000 0.463796000 0.455747000
0.474510000 0.464178000 0.467509000 0.459304000
0.478431000 0.467818000 0.471202000 0.462857000
0.482353000 0.471452000 0.474878000 0.466407000
0.486275000 0.475081000 0.478541000 0.469961000
0.490196000 0.478708000 0.482189000 0.473522000
0.494118000 0.482331000 0.485818000 0.477083000
0.498039000 0.485948000 0.489426000 0.480642000
0.501961000 0.489558000 0.493014000 0.484199000
0.505882000 0.493164000 0.496582000 0.487756000
0.509804000 0.496766000 0.500130000 0.491312000
0.513725000 0.500364000 0.503658000 0.494869000
0.517647000 0.503960000 0.507186000 0.498425000
0.521569000 0.507571000 0.510733000 0.501985000
0.525490000 0.511202000 0.514299000 0.505553000
0.529412000 0.514851000 0.517884000 0.509130000
0.533333000 0.518520000 0.521489000 0.512716000
0.537255000 0.522207000 0.525113000 0.516311000
0.541176000 0.525911000 0.528757000 0.519911000
0.545098000 0.529631000 0.532424000 0.523521000
0.549020000 0.533374000 0.536121000 0.527145000
0.552941000 0.537138000 0.539843000 0.530783000
0.556863000 0.540919000 0.543582000 0.534433000
0.560784000 0.544708000 0.547319000 0.538089000
0.564706000 0.548485000 0.551046000 0.541743000
0.568627000 0.552260000 0.554770000 0.545391000
0.572549000 0.556038000 0.558487000 0.549043000
0.576471000 0.559820000 0.562194000 0.552699000
0.580392000 0.563596000 0.565888000 0.556361000
0.584314000 0.567366000 0.569572000 0.560027000
0.588235000 0.571128000 0.573245000 0.563700000
0.592157000 0.574880000 0.576912000 0.567374000
0.596078000 0.578642000 0.580596000 0.571048000
0.600000000 0.582417000 0.584298000 0.574740000
0.603922000 0.586202000 0.588012000 0.578447000
0.607843000 0.589986000 0.591724000 0.582163000
0.611765000 0.593762000 0.595432000 0.585881000
0.615686000 0.597535000 0.599144000 0.589599000
0.619608000 0.601307000 0.602863000 0.593319000
0.623529000 0.605085000 0.606595000 0.597044000
0.627451000 0.608868000 0.610346000 0.600775000
0.631373000 0.612650000 0.614112000 0.604510000
0.635294000 0.616428000 0.617889000 0.608248000
0.639216000 0.620211000 0.621680000 0.611987000
0.643137000 0.624010000 0.625495000 0.615726000
0.647059000 0.627825000 0.629333000 0.619476000
0.650980000 0.631636000 0.633176000 0.623241000
0.654902000 0.635437000 0.637023000 0.627008000
0.658824000 0.639228000 0.640875000 0.630764000
0.662745000 0.642992000 0.644715000 0.634511000
0.666667000 0.646730000 0.648545000 0.638243000
0.670588000 0.650440000 0.652365000 0.641963000
0.674510000 0.654116000 0.656166000 0.645676000
0.678431000 0.657751000 0.659941000 0.649380000
0.682353000 0.661342000 0.663691000 0.653066000
0.686275000 0.664888000 0.667415000 0.656724000
0.690196000 0.668402000 0.671136000 0.660349000
0.694118000 0.671944000 0.674898000 0.663942000
0.698039000 0.675526000 0.678704000 0.667527000
0.701961000 0.679146000 0.682553000 0.671149000
0.705882000 0.682801000 0.686439000 0.674813000
0.709804000 0.686484000 0.690357000 0.678519000
0.713725000 0.690192000 0.694304000 0.682257000
0.717647000 0.693924000 0.698272000 0.686017000
0.721569000 0.697668000 0.702251000 0.689794000
0.725490000 0.701425000 0.706239000 0.693591000
0.729412000 0.705184000 0.710233000 0.697408000
0.733333000 0.708944000 0.714230000 0.701246000
0.737255000 0.712701000 0.718226000 0.705092000
0.741176000 0.716456000 0.722214000 0.708947000
0.745098000 0.720209000 0.726192000 0.712803000
0.749020000 0.723960000 0.730154000 0.716657000
0.752941000 0.727705000 0.734111000 0.720505000
0.756863000 0.731458000 0.738067000 0.724346000
0.760784000 0.735220000 0.742036000 0.728174000
0.764706000 0.738996000 0.746020000 0.731998000
0.768627000 0.742788000 0.750022000 0.735822000
0.772549000 0.746596000 0.754033000 0.739650000
0.776471000 0.750422000 0.758034000 0.743484000
0.780392000 0.754260000 0.762024000 0.747324000
0.784314000 0.758111000 0.766002000 0.751172000
0.788235000 0.761975000 0.769961000 0.755032000
0.792157000 0.765848000 0.773911000 0.758907000
0.796078000 0.769732000 0.777861000 0.762795000
0.800000000 0.773641000 0.781812000 0.766692000
0.803922000 0.777573000 0.785760000 0.770595000
0.807843000 0.781518000 0.789711000 0.774513000
0.811765000 0.785479000 0.793658000 0.778443000
0.815686000 0.789453000 0.797588000 0.782381000
0.819608000 0.793426000 0.801501000 0.786334000
0.823529000 0.797395000 0.805424000 0.790308000
0.827451000 0.801389000 0.809366000 0.794288000
0.831373000 0.805421000 0.813329000 0.798264000
0.835294000 0.809491000 0.817315000 0.802254000
0.839216000 0.813599000 0.821318000 0.806283000
0.843137000 0.817740000 0.825318000 0.810349000
0.847059000 0.821892000 0.829315000 0.814448000
0.850980000 0.826056000 0.833312000 0.818585000
0.854902000 0.830234000 0.837318000 0.822755000
0.858824000 0.834432000 0.841338000 0.826954000
0.862745000 0.838647000 0.845374000 0.831180000
0.866667000 0.842883000 0.849421000 0.835437000
0.870588000 0.847123000 0.853461000 0.839722000
0.874510000 0.851356000 0.857491000 0.844031000
0.878431000 0.855588000 0.861538000 0.848368000
0.882353000 0.859843000 0.865610000 0.852725000
0.886275000 0.864118000 0.869715000 0.857097000
0.890196000 0.868418000 0.873861000 0.861506000
0.894118000 0.872740000 0.878033000 0.865956000
0.898039000 0.877058000 0.882220000 0.870448000
0.901961000 0.881368000 0.886419000 0.874997000
0.905882000 0.885669000 0.890639000 0.879580000
0.909804000 0.889990000 0.894895000 0.884191000
0.913725000 0.894325000 0.899171000 0.888821000
0.917647000 0.898666000 0.903461000 0.893497000
0.921569000 0.903004000 0.907764000 0.898222000
0.925490000 0.907351000 0.912089000 0.902985000
0.929412000 0.911719000 0.916437000 0.907772000
0.933333000 0.916090000 0.920790000 0.912592000
0.937255000 0.920466000 0.925149000 0.917451000
0.941176000 0.924859000 0.929524000 0.922335000
0.945098000 0.929265000 0.933915000 0.927245000
0.949020000 0.933680000 0.938315000 0.932192000
0.952941000 0.938107000 0.942730000 0.937173000
0.956863000 0.942545000 0.947159000 0.942189000
0.960784000 0.946995000 0.951604000 0.947244000
0.964706000 0.951457000 0.956063000 0.952334000
0.968627000 0.955928000 0.960538000 0.957460000
0.972549000 0.960410000 0.965030000 0.962623000
0.976471000 0.964900000 0.969535000 0.967821000
0.980392000 0.969398000 0.974052000 0.973048000
0.984314000 0.973905000 0.978582000 0.978305000
0.988235000 0.978421000 0.983124000 0.983592000
0.992157000 0.982945000 0.987680000 0.988909000
0.996078000 0.987478000 0.992248000 0.994256000
1.000000000 0.992019000 0.996829000 0.999634000
END_DATA
CAL    

DESCRIPTOR "Argyll Calibration options and model"
ORIGINATOR "Argyll dispcal"
CREATED "Fri Aug 14 13:28:47 202"

NUMBER_OF_FIELDS 3
BEGIN_DATA_FORMAT
R_P G_P B_P
END_DATA_FORMAT

NUMBER_OF_SETS 32
BEGIN_DATA
-0.00000853072 0.00059589700 0.00144539000
1.00000900000 0.99940400000 0.99855500000
1.43834000000 1.57958900000 1.27357400000
0.58021600000 0.45937400000 0.70173200000
0.17470200000 0.19865300000 0.12311800000
0.18468000000 0.18724700000 0.23252500000
0.14759500000 0.14683300000 0.15874600000
0.08910880000 0.09105230000 0.07633880000
0.06861920000 0.06864830000 0.06926330000
0.06069300000 0.06166320000 0.06250140000
0.05123370000 0.05803910000 0.05217630000
0.04170280000 0.05313770000 0.04297430000
0.03751290000 0.04727990000 0.04029340000
0.03467040000 0.04106610000 0.03772270000
0.03171880000 0.03750570000 0.03191520000
0.02971470000 0.03610650000 0.03094570000
0.02851460000 0.03653780000 0.03062990000
0.02717160000 0.03516190000 0.02735530000
0.02442950000 0.03215800000 0.02463090000
0.02215800000 0.02919790000 0.02381590000
0.02081700000 0.02622990000 0.02309870000
0.01921800000 0.02429260000 0.02092730000
0.01773110000 0.02443360000 0.01971490000
0.01708130000 0.02414640000 0.01975710000
0.01677670000 0.02346000000 0.01853290000
0.01646090000 0.02227300000 0.01708650000
0.01562140000 0.02177740000 0.01683220000
0.01511090000 0.02249800000 0.01660000000
0.01462440000 0.02269770000 0.01560810000
0.01355940000 0.02184880000 0.01485350000
0.01274060000 0.02095190000 0.01488660000
0.01213390000 0.01940140000 0.01420460000
END_DATA
