calibration/F40HY-LQ134R1_#1_2026-08-14_21-37_D6500_2.2_F-S_XYZLUT+MTX/F40HY-LQ134R1_#1_2026-08-14_21-37_D6500_2.2_F-S_XYZLUT+MTX.ti3
CTI3   

DESCRIPTOR "Argyll Calibration Target chart information 3"
ORIGINATOR "Argyll dispread"
CREATED "Fri Aug 14 21:52:42 2026"
DEVICE_CLASS "DISPLAY"
SINGLE_DIM_STEPS "5"
COMP_GREY_STEPS "52"
MULTI_DIM_STEPS "5"
COLOR_REP "RGB_XYZ"
TARGET_INSTRUMENT "X-Rite i1 DisplayPro, ColorMunki Display"
DISPLAY_TYPE_REFRESH "NO"
DISPLAY_TYPE_BASE_ID "1"
INSTRUMENT_TYPE_SPECTRAL "NO"
LUMINANCE_XYZ_CDM2 "107.635066 113.278914 123.202380"
NORMALIZED_TO_Y_100 "YES"
VIDEO_LUT_CALIBRATION_POSSIBLE "YES"

BEGIN_ARGYLL_COLPROF_ARGS
-v -qh -aX -bn -C "No copyright. Created with DisplayCAL 3.9.19 and Argyll CMS 3.5.0" -M "F40HY-LQ134R1" -A "Sharp Corporation"
END_ARGYLL_COLPROF_ARGS

OBSERVER "1931_2"
USE_BLACK_POINT_COMPENSATION "NO"
BLACK_POINT_CORRECTION "0.0"
HIRES_B2A "YES"
HIRES_B2A_SIZE "-1"
SMOOTH_B2A "YES"
PATCH_SEQUENCE "OPTIMIZE_DISPLAY_RESPONSE_DELAY"

NUMBER_OF_FIELDS 7
BEGIN_DATA_FORMAT
SAMPLE_ID RGB_R RGB_G RGB_B XYZ_X XYZ_Y XYZ_Z
END_DATA_FORMAT

NUMBER_OF_SETS 175
BEGIN_DATA
1 100.00000 100.00000 100.00000 95.017740 100.00000 108.76020
2 100.00000 100.00000 75.000000 86.614750 96.908160 61.849650
3 100.00000 100.00000 100.00000 95.017740 100.00000 108.76020
4 100.00000 100.00000 100.00000 94.983130 99.998870 108.59930
5 0.0000000 0.0000000 0.0000000 0.0752726 0.0781638 0.1250550
6 25.000000 0.0000000 0.0000000 2.2114930 1.1242940 0.1600070
7 50.000000 0.0000000 0.0000000 10.117120 4.9978840 0.2910320
8 75.000000 0.0000000 0.0000000 23.700740 11.654240 0.5160890
9 100.00000 0.0000000 0.0000000 45.405540 22.285210 0.8644280
10 100.00000 0.0000000 25.000000 46.285560 22.606160 5.6514200
11 100.00000 25.000000 25.000000 47.819500 26.027780 6.1127710
12 100.00000 50.000000 25.000000 53.389790 38.577090 7.6832210
13 100.00000 75.000000 25.000000 62.910840 59.997720 10.349660
14 0.0000000 0.0000000 25.000000 0.9298350 0.3879020 4.8443190
15 25.000000 0.0000000 25.000000 3.0861670 1.4432420 4.9081080
16 75.000000 0.0000000 100.00000 41.734620 18.314190 99.547180
17 100.00000 0.0000000 100.00000 63.357710 28.901060 99.905160
18 1.9608000 1.9608000 1.9608000 0.1027530 0.1097960 0.1378410
19 3.9216000 3.9216000 3.9216000 0.1631510 0.1755050 0.1965640
20 5.8824000 5.8824000 5.8824000 0.2583670 0.2743220 0.3084460
21 7.8431000 7.8431000 7.8431000 0.4148430 0.4384380 0.4954870
22 9.8039000 9.8039000 9.8039000 0.6164730 0.6531910 0.7325840
23 11.765000 11.765000 11.765000 0.8763760 0.9230130 1.0389920
24 13.726000 13.726000 13.726000 1.2012950 1.2660830 1.4122280
25 15.686000 15.686000 15.686000 1.5825540 1.6731260 1.8514210
26 17.647000 17.647000 17.647000 2.0454560 2.1666500 2.3954360
27 19.608000 19.608000 19.608000 2.5994730 2.7431940 3.0325420
28 21.569000 21.569000 21.569000 3.2444170 3.4313770 3.7932820
29 23.529000 23.529000 23.529000 3.9620000 4.1695950 4.6422220
30 27.451000 27.451000 27.451000 5.6819010 5.9603450 6.5655370
31 29.412000 29.412000 29.412000 6.6598820 6.9568010 7.7121210
32 31.373000 31.373000 31.373000 7.6615000 8.0181680 8.8574240
33 33.333000 33.333000 33.333000 8.7771110 9.1821960 10.150720
34 35.294000 35.294000 35.294000 9.9219300 10.404220 11.383990
35 37.255000 37.255000 37.255000 11.032730 11.577730 12.724670
36 39.216000 39.216000 39.216000 12.309380 12.944840 14.127240
37 41.176000 41.176000 41.176000 13.635030 14.328460 15.663630
38 43.137000 43.137000 43.137000 15.173100 15.968410 17.414920
39 45.098000 45.098000 45.098000 16.861310 17.727650 19.374550
40 47.059000 47.059000 47.059000 18.539650 19.515910 21.287820
41 49.020000 49.020000 49.020000 20.242030 21.306730 23.197190
42 50.980000 50.980000 50.980000 21.992760 23.102710 25.237720
43 52.941000 52.941000 52.941000 23.662170 24.952420 27.203290
44 54.902000 54.902000 54.902000 25.576140 26.957420 29.353730
45 56.863000 56.863000 56.863000 27.549950 28.994740 31.564730
46 58.824000 58.824000 58.824000 29.669490 31.188130 33.966160
47 60.784000 60.784000 60.784000 31.840680 33.554310 36.579440
48 62.745000 62.745000 62.745000 34.144300 35.981470 39.031370
49 64.706000 64.706000 64.706000 36.517140 38.410890 41.805120
50 66.667000 66.667000 66.667000 38.949310 40.971540 44.581400
51 68.627000 68.627000 68.627000 41.381480 43.532190 47.357680
52 70.588000 70.588000 70.588000 43.907590 46.225200 50.297400
53 72.549000 72.549000 72.549000 46.468300 48.919340 53.398020
54 76.471000 76.471000 76.471000 52.195750 54.957890 59.769440
55 78.431000 78.431000 78.431000 55.111390 57.978850 63.196510
56 80.392000 80.392000 80.392000 58.145680 61.262280 66.628650
57 82.353000 82.353000 82.353000 61.214580 64.546840 70.221690
58 84.314000 84.314000 84.314000 64.544470 68.025860 73.977730
59 86.275000 86.275000 86.275000 68.002900 71.638370 78.058110
60 88.235000 88.235000 88.235000 71.628380 75.312990 82.138060
61 90.196000 90.196000 90.196000 75.240080 79.189090 86.384420
62 92.157000 92.157000 92.157000 79.147380 83.260790 90.954680
63 94.118000 94.118000 94.118000 82.960730 87.200130 95.361510
64 96.078000 96.078000 96.078000 86.961960 91.404180 100.09520
65 98.039000 98.039000 98.039000 91.022520 95.739470 104.83150
66 25.000000 25.000000 0.0000000 3.7096960 4.4811740 0.5789160
67 50.000000 25.000000 0.0000000 11.623490 8.3683460 0.7114720
68 75.000000 25.000000 0.0000000 25.208740 15.029280 0.9372010
69 100.00000 25.000000 0.0000000 46.912110 25.672870 1.2872540
70 100.00000 50.000000 0.0000000 52.475800 38.198860 2.8458680
71 50.000000 50.000000 0.0000000 17.223410 20.891470 2.2699580
72 75.000000 50.000000 0.0000000 30.779560 27.542390 2.4946590
73 25.000000 50.000000 0.0000000 9.2532470 16.930350 2.1285610
74 25.000000 75.000000 0.0000000 18.791070 38.337750 4.7867550
75 50.000000 75.000000 0.0000000 26.729770 42.246160 4.9196430
76 75.000000 75.000000 0.0000000 40.363860 49.003670 5.1572070
77 100.00000 75.000000 0.0000000 62.004000 59.605760 5.5025800
78 25.000000 100.00000 0.0000000 33.937210 72.246040 8.9457560
79 50.000000 100.00000 0.0000000 41.885950 76.135430 9.0744790
80 75.000000 100.00000 0.0000000 55.441850 82.782950 9.2985220
81 100.00000 100.00000 0.0000000 77.048680 93.329970 9.6411320
82 100.00000 100.00000 25.000000 77.988840 93.723370 14.502160
83 50.000000 0.0000000 25.000000 10.995330 5.3189970 5.0500700
84 50.000000 25.000000 50.000000 15.711720 9.8987730 22.814390
85 0.0000000 25.000000 0.0000000 1.5534620 3.4100010 0.5413710
86 0.0000000 25.000000 25.000000 2.4139600 3.7390580 5.2672240
87 25.490000 25.490000 25.490000 4.7735430 5.0073930 5.5502170
88 50.000000 25.000000 25.000000 12.517250 8.7175640 5.5031800
89 75.000000 25.000000 25.000000 26.087960 15.377380 5.7415290
90 0.0000000 50.000000 0.0000000 7.0769310 15.843710 2.0912710
91 0.0000000 50.000000 25.000000 7.9496380 16.180090 6.8421770
92 25.000000 50.000000 25.000000 10.149620 17.282750 6.9214850
93 50.000000 50.000000 25.000000 18.104280 21.223560 7.0724670
94 75.000000 50.000000 25.000000 31.643630 27.885970 7.3085400
95 0.0000000 75.000000 0.0000000 16.600600 37.243210 4.7482130
96 0.0000000 75.000000 25.000000 17.451720 37.568410 9.5064380
97 25.000000 75.000000 25.000000 19.696640 38.670860 9.5809600
98 50.000000 75.000000 25.000000 27.619740 42.577370 9.7312100
99 75.000000 75.000000 25.000000 41.255770 49.328370 9.9780780
100 0.0000000 100.00000 0.0000000 31.746930 71.181180 8.9102260
101 0.0000000 100.00000 25.000000 32.651050 71.486400 13.682200
102 25.000000 100.00000 25.000000 34.839950 72.566060 13.755740
103 50.000000 100.00000 25.000000 42.790680 76.456300 13.897740
104 75.000000 100.00000 25.000000 56.388940 83.139920 14.132710
105 0.0000000 0.0000000 50.000000 4.0479540 1.5222810 22.063940
106 25.000000 0.0000000 50.000000 6.2104110 2.5807830 22.124600
107 50.000000 0.0000000 50.000000 14.160800 6.4743410 22.351740
108 75.000000 0.0000000 50.000000 27.706490 13.112450 22.587150
109 100.00000 0.0000000 50.000000 49.385030 23.732300 22.983380
110 100.00000 0.0000000 75.000000 54.851090 25.731000 52.845190
111 100.00000 25.000000 75.000000 56.350910 29.156100 53.251180
112 75.000000 0.0000000 25.000000 24.568280 11.970230 5.2836410
113 75.000000 25.000000 50.000000 29.240560 16.527940 23.046610
114 100.00000 25.000000 50.000000 50.960210 27.167760 23.450900
115 25.000000 25.000000 50.000000 7.7414680 5.9829350 22.580510
116 25.000000 50.000000 50.000000 13.303580 18.477530 24.165140
117 75.000000 50.000000 50.000000 34.791580 29.058840 24.644660
118 100.00000 50.000000 50.000000 56.587470 39.792620 25.080120
119 100.00000 50.000000 75.000000 61.957840 41.776210 54.813290
120 25.000000 75.000000 50.000000 22.861040 39.834880 26.856610
121 50.000000 75.000000 50.000000 30.797020 43.754960 27.065080
122 75.000000 75.000000 50.000000 44.344680 50.495190 27.296270
123 100.00000 75.000000 50.000000 66.031000 61.136830 27.757800
124 100.00000 75.000000 75.000000 71.396060 63.134660 57.486690
125 25.000000 100.00000 50.000000 37.959960 73.751020 31.055230
126 50.000000 100.00000 50.000000 46.044940 77.616070 31.282410
127 75.000000 100.00000 50.000000 59.512570 84.211480 31.535260
128 100.00000 100.00000 50.000000 81.202280 94.816760 31.938800
129 25.000000 0.0000000 75.000000 11.629000 4.5625390 52.001510
130 50.000000 0.0000000 75.000000 19.571430 8.4532210 52.146700
131 75.000000 0.0000000 75.000000 33.169670 15.117710 52.459580
132 75.000000 25.000000 75.000000 34.710650 18.538190 52.945900
133 75.000000 50.000000 100.00000 48.881630 34.394210 101.39630
134 25.000000 25.000000 75.000000 13.156520 7.9740410 52.426940
135 25.000000 50.000000 100.00000 27.288150 23.722630 101.09700
136 0.0000000 25.000000 50.000000 5.5461740 4.8899220 22.510370
137 0.0000000 25.000000 75.000000 10.958490 6.8742890 52.374420
138 0.0000000 50.000000 75.000000 16.507380 19.371780 53.903110
139 25.000000 50.000000 75.000000 18.715160 20.478950 53.966910
140 50.000000 50.000000 75.000000 26.723180 24.436680 54.184660
141 75.000000 50.000000 75.000000 40.235810 31.098920 54.448070
142 74.510000 74.510000 74.510000 49.314720 51.938050 56.503280
143 0.0000000 75.000000 75.000000 26.101840 40.784380 56.663260
144 25.000000 75.000000 75.000000 28.284370 41.923400 56.665610
145 50.000000 75.000000 75.000000 36.202930 45.838470 56.830060
146 0.0000000 75.000000 50.000000 20.654690 38.711330 26.759930
147 0.0000000 100.00000 50.000000 35.786620 72.648490 30.970860
148 0.0000000 100.00000 75.000000 41.178200 74.625870 60.868300
149 25.000000 100.00000 75.000000 43.468450 75.695770 60.867670
150 50.000000 100.00000 75.000000 51.387000 79.610840 61.032120
151 75.000000 100.00000 75.000000 64.874550 86.239850 61.359100
152 75.000000 100.00000 100.00000 73.444590 89.393800 108.26920
153 25.000000 0.0000000 100.00000 20.184430 7.7591130 99.146240
154 50.000000 0.0000000 100.00000 28.133750 11.654690 99.273740
155 0.0000000 0.0000000 75.000000 9.4567170 3.4997670 51.923700
156 0.0000000 0.0000000 100.00000 18.011160 6.6929390 99.103660
157 0.0000000 25.000000 100.00000 19.515290 10.079710 99.525260
158 25.000000 25.000000 100.00000 21.720190 11.181970 99.596660
159 50.000000 25.000000 100.00000 29.675980 15.085770 99.716780
160 75.000000 25.000000 100.00000 43.273580 21.751880 99.945310
161 100.00000 25.000000 100.00000 64.830150 32.333320 100.23430
162 100.00000 50.000000 100.00000 70.420170 44.999280 101.72640
163 50.000000 25.000000 75.000000 21.099140 11.867000 52.569440
164 50.000000 50.000000 100.00000 35.261650 27.704220 101.23060
165 0.0000000 50.000000 50.000000 11.096650 17.371330 24.098530
166 0.0000000 50.000000 100.00000 25.070440 22.594100 101.04920
167 0.0000000 75.000000 100.00000 34.598770 44.008580 103.73730
168 25.000000 75.000000 100.00000 36.889020 45.078480 103.73660
169 50.000000 75.000000 100.00000 44.807580 48.993550 103.90110
170 75.000000 75.000000 100.00000 58.319840 55.752670 104.06970
171 100.00000 75.000000 100.00000 80.025420 66.419850 104.39930
172 0.0000000 100.00000 100.00000 49.581190 77.717710 107.77880
173 25.000000 100.00000 100.00000 51.906050 78.788740 107.93910
174 50.000000 100.00000 100.00000 59.790000 82.702680 107.94270
175 100.00000 100.00000 100.00000 94.923800 99.867640 108.59680
END_DATA
CAL    

DESCRIPTOR "Argyll Device Calibration State"
ORIGINATOR "Argyll dispread"
CREATED "Fri Aug 14 21:52:42 2026"
DEVICE_CLASS "DISPLAY"
COLOR_REP "RGB"

BEGIN_ARGYLL_DISPCAL_ARGS
-v2 -ql -t6500 -g2.2 -f1.0 -A4.0 -d1 -c1 -yn -P0.500184706316956,0.500394632991318,1.0 -X "WLEDFamily_07Feb11.ccss"
END_ARGYLL_DISPCAL_ARGS


NUMBER_OF_FIELDS 4
BEGIN_DATA_FORMAT
RGB_I RGB_R RGB_G RGB_B
END_DATA_FORMAT

NUMBER_OF_SETS 256
BEGIN_DATA
0.00000000 0.02086670 0.01661000 0.00000000
0.00392157 0.02312940 0.01886290 0.00000000
0.00784314 0.02544670 0.02117320 0.00362332
0.01176470 0.02782040 0.02354320 0.00731103
0.01568630 0.03025280 0.02597520 0.01104820
0.01960780 0.03274600 0.02847160 0.01483590
0.02352940 0.03530230 0.03103510 0.01867510
0.02745100 0.03792420 0.03366830 0.02256690
0.03137250 0.04061420 0.03637420 0.02651240
0.03529410 0.04337490 0.03915590 0.03051260
0.03921570 0.04620930 0.04201640 0.03456620
0.04313730 0.04912030 0.04495940 0.03866060
0.04705880 0.05211100 0.04798830 0.04277990
0.05098040 0.05518380 0.05110260 0.04690350
0.05490200 0.05833330 0.05429050 0.05101420
0.05882350 0.06155110 0.05753750 0.05510990
0.06274510 0.06483130 0.06082890 0.05918070
0.06666670 0.06816550 0.06414880 0.06320820
0.07058820 0.07154550 0.06748680 0.06718100
0.07450980 0.07496940 0.07083730 0.07109990
0.07843140 0.07843100 0.07418910 0.07497640
0.08235290 0.08191440 0.07752740 0.07881950
0.08627450 0.08540360 0.08084220 0.08263400
0.09019610 0.08889190 0.08413700 0.08641640
0.09411760 0.09238460 0.08742180 0.09017240
0.09803920 0.09588790 0.09070740 0.09390360
0.10196100 0.09940580 0.09400140 0.09761850
0.10588200 0.10293600 0.09731010 0.10132300
0.10980400 0.10647400 0.10063400 0.10501900
0.11372500 0.11001600 0.10398200 0.10870300
0.11764700 0.11356500 0.10735600 0.11238200
0.12156900 0.11711700 0.11076200 0.11606100
0.12549000 0.12067400 0.11420200 0.11974700
0.12941200 0.12423200 0.11767000 0.12343900
0.13333300 0.12778800 0.12116400 0.12715100
0.13725500 0.13134200 0.12468400 0.13088100
0.14117600 0.13490000 0.12823000 0.13463000
0.14509800 0.13847200 0.13180800 0.13839200
0.14902000 0.14206400 0.13541600 0.14216400
0.15294100 0.14568100 0.13905100 0.14593900
0.15686300 0.14932100 0.14270400 0.14972000
0.16078400 0.15298100 0.14637500 0.15350700
0.16470600 0.15666500 0.15005900 0.15730600
0.16862700 0.16037200 0.15375600 0.16112300
0.17254900 0.16409900 0.15745300 0.16496100
0.17647100 0.16784500 0.16115500 0.16882400
0.18039200 0.17161400 0.16486900 0.17271600
0.18431400 0.17542200 0.16860200 0.17663600
0.18823500 0.17927200 0.17235700 0.18057500
0.19215700 0.18316700 0.17613800 0.18455000
0.19607800 0.18710600 0.17993500 0.18855200
0.20000000 0.19108100 0.18374700 0.19257900
0.20392200 0.19508700 0.18756000 0.19663000
0.20784300 0.19910700 0.19137900 0.20069400
0.21176500 0.20315900 0.19520800 0.20476000
0.21568600 0.20723500 0.19903500 0.20882900
0.21960800 0.21132400 0.20285600 0.21289500
0.22352900 0.21542500 0.20667100 0.21696300
0.22745100 0.21953000 0.21047500 0.22102800
0.23137300 0.22362700 0.21426300 0.22508600
0.23529400 0.22771700 0.21803500 0.22912900
0.23921600 0.23180300 0.22179800 0.23315500
0.24313700 0.23588500 0.22554800 0.23717500
0.24705900 0.23996000 0.22929400 0.24118800
0.25098000 0.24404000 0.23304100 0.24519300
0.25490200 0.24811500 0.23678200 0.24919100
0.25882400 0.25217900 0.24051900 0.25317900
0.26274500 0.25624500 0.24426200 0.25715700
0.26666700 0.26030900 0.24800600 0.26112400
0.27058800 0.26436900 0.25174900 0.26508500
0.27451000 0.26842800 0.25549900 0.26904400
0.27843100 0.27247800 0.25925200 0.27299800
0.28235300 0.27651000 0.26300300 0.27694800
0.28627500 0.28052500 0.26675200 0.28088800
0.29019600 0.28453000 0.27050300 0.28481400
0.29411800 0.28852400 0.27425400 0.28873400
0.29803900 0.29250200 0.27800600 0.29264600
0.30196100 0.29645300 0.28175600 0.29653800
0.30588200 0.30037300 0.28549100 0.30041300
0.30980400 0.30428300 0.28922900 0.30427500
0.31372500 0.30818600 0.29298000 0.30812300
0.31764700 0.31206300 0.29672900 0.31195900
0.32156900 0.31591300 0.30047000 0.31576900
0.32549000 0.31973000 0.30420200 0.31954400
0.32941200 0.32351800 0.30791700 0.32328100
0.33333300 0.32728200 0.31162100 0.32698000
0.33725500 0.33100700 0.31530200 0.33064200
0.34117600 0.33469000 0.31895400 0.33426900
0.34509800 0.33832500 0.32257300 0.33787200
0.34902000 0.34191400 0.32615600 0.34145000
0.35294100 0.34545600 0.32970400 0.34500400
0.35686300 0.34898100 0.33323200 0.34853500
0.36078400 0.35250400 0.33675300 0.35204300
0.36470600 0.35602100 0.34026400 0.35553800
0.36862700 0.35953100 0.34376600 0.35902800
0.37254900 0.36304000 0.34726200 0.36251200
0.37647100 0.36655400 0.35075800 0.36600500
0.38039200 0.37008800 0.35426800 0.36951100
0.38431400 0.37364400 0.35779600 0.37303800
0.38823500 0.37723300 0.36134900 0.37659600
0.39215700 0.38086600 0.36493800 0.38019000
0.39607800 0.38454100 0.36856100 0.38382800
0.40000000 0.38826100 0.37221900 0.38751700
0.40392200 0.39203100 0.37590800 0.39125300
0.40784300 0.39584900 0.37963000 0.39502800
0.41176500 0.39971400 0.38339200 0.39884300
0.41568600 0.40361300 0.38718200 0.40270800
0.41960800 0.40753200 0.39098200 0.40662500
0.42352900 0.41147800 0.39480100 0.41058500
0.42745100 0.41546800 0.39866200 0.41456800
0.43137300 0.41950200 0.40256500 0.41856500
0.43529400 0.42356600 0.40648600 0.42257200
0.43921600 0.42763800 0.41041100 0.42658200
0.44313700 0.43170500 0.41433800 0.43058900
0.44705900 0.43576200 0.41826500 0.43458600
0.45098000 0.43980400 0.42218600 0.43857500
0.45490200 0.44382600 0.42608600 0.44254000
0.45882400 0.44782400 0.42996300 0.44648100
0.46274500 0.45178600 0.43380500 0.45039100
0.46666700 0.45570900 0.43761400 0.45426800
0.47058800 0.45960300 0.44139900 0.45811300
0.47451000 0.46346200 0.44515200 0.46192200
0.47843100 0.46728700 0.44887700 0.46569900
0.48235300 0.47106900 0.45256600 0.46944000
0.48627500 0.47481800 0.45622600 0.47315600
0.49019600 0.47853600 0.45985800 0.47685400
0.49411800 0.48223600 0.46347700 0.48054000
0.49803900 0.48592700 0.46708700 0.48421300
0.50196100 0.48960900 0.47068900 0.48787100
0.50588200 0.49328100 0.47428100 0.49151500
0.50980400 0.49694300 0.47786700 0.49514500
0.51372500 0.50059700 0.48144500 0.49876200
0.51764700 0.50424200 0.48501600 0.50237900
0.52156900 0.50788000 0.48858600 0.50600400
0.52549000 0.51153200 0.49216600 0.50963800
0.52941200 0.51519300 0.49575300 0.51328100
0.53333300 0.51886400 0.49934600 0.51693200
0.53725500 0.52254300 0.50294600 0.52059400
0.54117600 0.52623100 0.50655000 0.52426700
0.54509800 0.52992600 0.51016000 0.52794400
0.54902000 0.53363100 0.51377500 0.53161600
0.55294100 0.53734500 0.51739000 0.53527800
0.55686300 0.54105200 0.52099700 0.53893300
0.56078400 0.54475600 0.52459500 0.54258400
0.56470600 0.54845000 0.52818600 0.54623300
0.56862700 0.55213000 0.53176900 0.54989600
0.57254900 0.55581200 0.53536200 0.55357300
0.57647100 0.55950400 0.53896700 0.55727300
0.58039200 0.56321400 0.54258900 0.56100300
0.58431400 0.56695500 0.54623500 0.56475900
0.58823500 0.57072600 0.54990000 0.56852600
0.59215700 0.57451200 0.55356400 0.57230600
0.59607800 0.57830500 0.55723900 0.57610300
0.60000000 0.58212600 0.56093900 0.57991500
0.60392200 0.58597400 0.56465200 0.58374100
0.60784300 0.58984200 0.56837300 0.58757300
0.61176500 0.59371600 0.57210000 0.59142100
0.61568600 0.59760100 0.57584000 0.59528100
0.61960800 0.60150100 0.57959200 0.59915700
0.62352900 0.60541800 0.58335600 0.60303300
0.62745100 0.60933700 0.58712400 0.60690500
0.63137300 0.61325300 0.59089300 0.61077200
0.63529400 0.61716200 0.59466400 0.61463400
0.63921600 0.62105900 0.59843400 0.61849500
0.64313700 0.62495500 0.60221000 0.62234900
0.64705900 0.62885200 0.60599100 0.62619900
0.65098000 0.63275600 0.60977200 0.63005600
0.65490200 0.63666400 0.61354600 0.63391400
0.65882400 0.64057200 0.61730900 0.63777100
0.66274500 0.64447200 0.62106200 0.64162700
0.66666700 0.64836500 0.62481900 0.64549100
0.67058800 0.65225100 0.62857500 0.64935900
0.67451000 0.65611300 0.63231200 0.65321700
0.67843100 0.65993800 0.63600800 0.65705600
0.68235300 0.66371500 0.63965600 0.66087000
0.68627500 0.66744300 0.64325700 0.66466000
0.69019600 0.67113400 0.64685400 0.66844000
0.69411800 0.67485400 0.65049100 0.67223600
0.69803900 0.67861100 0.65416700 0.67604900
0.70196100 0.68240500 0.65787900 0.67987900
0.70588200 0.68623000 0.66160700 0.68371600
0.70980400 0.69007100 0.66533500 0.68754900
0.71372500 0.69391600 0.66905700 0.69137000
0.71764700 0.69776200 0.67278300 0.69517700
0.72156900 0.70160800 0.67652200 0.69898000
0.72549000 0.70545800 0.68027200 0.70278500
0.72941200 0.70931000 0.68403600 0.70659600
0.73333300 0.71317400 0.68781300 0.71041900
0.73725500 0.71705200 0.69159700 0.71425300
0.74117600 0.72093900 0.69537600 0.71809200
0.74509800 0.72483000 0.69915200 0.72193300
0.74902000 0.72871600 0.70291800 0.72577600
0.75294100 0.73260700 0.70668900 0.72962900
0.75686300 0.73650900 0.71046300 0.73350400
0.76078400 0.74042400 0.71424200 0.73739300
0.76470600 0.74435000 0.71802600 0.74129100
0.76862700 0.74829000 0.72181800 0.74519800
0.77254900 0.75224500 0.72562000 0.74911500
0.77647100 0.75620700 0.72943000 0.75304200
0.78039200 0.76017100 0.73324900 0.75697900
0.78431400 0.76414300 0.73708000 0.76092300
0.78823500 0.76811800 0.74090900 0.76488000
0.79215700 0.77208000 0.74473600 0.76884200
0.79607800 0.77603800 0.74855400 0.77280800
0.80000000 0.77998900 0.75236500 0.77677300
0.80392200 0.78394600 0.75617800 0.78074100
0.80784300 0.78791900 0.76000600 0.78472100
0.81176500 0.79191000 0.76384600 0.78872300
0.81568600 0.79591000 0.76768100 0.79275400
0.81960800 0.79991600 0.77152300 0.79680800
0.82352900 0.80395000 0.77539700 0.80088700
0.82745100 0.80801900 0.77929900 0.80500100
0.83137300 0.81211400 0.78321000 0.80915300
0.83529400 0.81621900 0.78712300 0.81332700
0.83921600 0.82033000 0.79104200 0.81750400
0.84313700 0.82444300 0.79497100 0.82168700
0.84705900 0.82857200 0.79891400 0.82587800
0.85098000 0.83271900 0.80287100 0.83008300
0.85490200 0.83687800 0.80683300 0.83430300
0.85882400 0.84104400 0.81079500 0.83854400
0.86274500 0.84521700 0.81475900 0.84280700
0.86666700 0.84939100 0.81872900 0.84708600
0.87058800 0.85356000 0.82269100 0.85138400
0.87451000 0.85772900 0.82666400 0.85569600
0.87843100 0.86191700 0.83065700 0.86002100
0.88235300 0.86611000 0.83465100 0.86436500
0.88627500 0.87031000 0.83866000 0.86871500
0.89019600 0.87452400 0.84268500 0.87306500
0.89411800 0.87875600 0.84672400 0.87742600
0.89803900 0.88299700 0.85076700 0.88181500
0.90196100 0.88722700 0.85480200 0.88622700
0.90588200 0.89145700 0.85884300 0.89064600
0.90980400 0.89568300 0.86288500 0.89506500
0.91372500 0.89990700 0.86692800 0.89948300
0.91764700 0.90412500 0.87096700 0.90390800
0.92156900 0.90834100 0.87500700 0.90834100
0.92549000 0.91257700 0.87906100 0.91278600
0.92941200 0.91681500 0.88311600 0.91725600
0.93333300 0.92104400 0.88716800 0.92173900
0.93725500 0.92527700 0.89122200 0.92622800
0.94117600 0.92951400 0.89527900 0.93072500
0.94509800 0.93375700 0.89934400 0.93523600
0.94902000 0.93800100 0.90341100 0.93976300
0.95294100 0.94225500 0.90748800 0.94429800
0.95686300 0.94651300 0.91157100 0.94884900
0.96078400 0.95077800 0.91566200 0.95341200
0.96470600 0.95504900 0.91975800 0.95799000
0.96862700 0.95932500 0.92386000 0.96258200
0.97254900 0.96360600 0.92796700 0.96718900
0.97647100 0.96788900 0.93207600 0.97181100
0.98039200 0.97217300 0.93618600 0.97644900
0.98431400 0.97645900 0.94029600 0.98110200
0.98823500 0.98074600 0.94440700 0.98577000
0.99215700 0.98503400 0.94851900 0.99045400
0.99607800 0.98932400 0.95263200 0.99515300
1.00000000 0.99361500 0.95674600 0.99986800
END_DATA
